;FLAVOR:Marlin
;TIME:11424
;Filament used: 7.19364m
;Layer height: 0.15
;MINX:10.149
;MINY:18.25
;MINZ:0.3
;MAXX:93.749
;MAXY:101.811
;MAXZ:6
;Generated with Cura_SteamEngine 4.8.0
M140 S60
M105
M190 S60
M104 S205
M105
M109 S205
M82 ;absolute extrusion mode
G21 ;metric values
 G90 ;absolute positioning
 M82 ;set extruder to absolute mode
 M107 ;start with the fan off
 G28 X0 Y0 ;move X/Y to min endstops
 G28 Z0 ;move Z to min endstops
 G1 Z15.0 F50 ;move the platform down 15mm
 G92 E0 ;zero the extruded length
 G1 F200 E6 ;extrude 6 mm of feed stock
 G92 E0 ;zero the extruded length again
 G1 F50 
 ;Put printing message on LCD screen
 M117 Printing...
G92 E0
G92 E0
;LAYER_COUNT:39
;LAYER:0
M107
M204 S5000
M205 X30 Y30
G0 F2625 X14.522 Y20.866 Z0.3
M204 S3000
M205 X20 Y20
;TYPE:SKIRT
G1 F2100 X15.543 Y20.125 E0.06294
G1 X15.733 Y20.004 E0.07418
G1 X16.827 Y19.403 E0.13645
G1 X17.033 Y19.307 E0.14779
G1 X18.203 Y18.845 E0.21055
G1 X18.417 Y18.775 E0.22178
G1 X19.639 Y18.462 E0.28471
G1 X19.861 Y18.42 E0.29599
G1 X21.1 Y18.264 E0.35829
G1 X21.325 Y18.25 E0.36954
G1 X82.572 Y18.25 E3.42516
G1 X82.797 Y18.264 E3.43641
G1 X84.036 Y18.42 E3.49871
G1 X84.259 Y18.463 E3.51004
G1 X85.493 Y18.78 E3.5736
G1 X85.709 Y18.85 E3.58493
G1 X86.879 Y19.314 E3.64773
G1 X87.084 Y19.411 E3.65904
G1 X88.176 Y20.013 E3.72125
G1 X88.366 Y20.133 E3.73246
G1 X89.386 Y20.875 E3.79539
G1 X89.559 Y21.019 E3.80662
G1 X90.475 Y21.879 E3.8693
G1 X90.63 Y22.043 E3.88056
G1 X91.422 Y23 E3.94254
G1 X91.554 Y23.183 E3.95379
G1 X92.235 Y24.255 E4.01716
G1 X92.346 Y24.456 E4.02861
G1 X92.878 Y25.59 E4.0911
G1 X92.96 Y25.799 E4.1023
G1 X93.347 Y26.994 E4.16497
G1 X93.403 Y27.212 E4.1762
G1 X93.637 Y28.441 E4.23862
G1 X93.665 Y28.663 E4.24978
G1 X93.745 Y29.918 E4.31252
G1 X93.749 Y30.033 E4.31826
G1 X93.749 Y90.026 E7.31132
G1 X93.745 Y90.141 E7.31706
G1 X93.664 Y91.41 E7.3805
G1 X93.636 Y91.635 E7.39182
G1 X93.4 Y92.863 E7.4542
G1 X93.344 Y93.079 E7.46533
G1 X92.957 Y94.271 E7.52786
G1 X92.874 Y94.481 E7.53912
G1 X92.339 Y95.618 E7.60182
G1 X92.229 Y95.818 E7.6132
G1 X91.554 Y96.879 E7.67594
G1 X91.421 Y97.061 E7.68719
G1 X90.62 Y98.028 E7.74983
G1 X90.465 Y98.194 E7.76116
G1 X89.549 Y99.052 E7.82378
G1 X89.375 Y99.195 E7.83502
G1 X88.354 Y99.936 E7.89796
G1 X88.164 Y100.057 E7.90919
G1 X87.07 Y100.658 E7.97147
G1 X86.864 Y100.754 E7.98281
G1 X85.694 Y101.216 E8.04556
G1 X85.48 Y101.286 E8.0568
G1 X84.258 Y101.599 E8.11973
G1 X84.036 Y101.641 E8.131
G1 X82.797 Y101.797 E8.1933
G1 X82.572 Y101.811 E8.20455
G1 X21.313 Y101.81 E11.26078
G1 X21.085 Y101.796 E11.27217
G1 X19.846 Y101.638 E11.33449
G1 X19.626 Y101.595 E11.34567
G1 X18.404 Y101.281 E11.40862
G1 X18.188 Y101.211 E11.41994
G1 X17.018 Y100.747 E11.48274
G1 X16.813 Y100.65 E11.49405
G1 X15.721 Y100.048 E11.55626
G1 X15.531 Y99.928 E11.56747
G1 X14.511 Y99.186 E11.6304
G1 X14.338 Y99.042 E11.64163
G1 X13.422 Y98.182 E11.70432
G1 X13.267 Y98.018 E11.71557
G1 X12.475 Y97.061 E11.77755
G1 X12.343 Y96.878 E11.78881
G1 X11.662 Y95.806 E11.85217
G1 X11.551 Y95.606 E11.86358
G1 X11.018 Y94.47 E11.92618
G1 X10.935 Y94.259 E11.9375
G1 X10.549 Y93.065 E12.0001
G1 X10.494 Y92.848 E12.01127
G1 X10.26 Y91.619 E12.07368
G1 X10.232 Y91.395 E12.08495
G1 X10.153 Y90.141 E12.14763
G1 X10.149 Y90.028 E12.15327
G1 X10.149 Y30.033 E15.14644
G1 X10.153 Y29.919 E15.15213
G1 X10.233 Y28.653 E15.21542
G1 X10.261 Y28.428 E15.22673
G1 X10.497 Y27.198 E15.28921
G1 X10.553 Y26.981 E15.30039
G1 X10.94 Y25.79 E15.36287
G1 X11.023 Y25.58 E15.37414
G1 X11.558 Y24.443 E15.43683
G1 X11.668 Y24.243 E15.44821
G1 X12.343 Y23.182 E15.51095
G1 X12.476 Y23 E15.5222
G1 X13.277 Y22.033 E15.58484
G1 X13.432 Y21.867 E15.59617
G1 X14.348 Y21.009 E15.65879
G1 X14.522 Y20.866 E15.67003
M204 S5000
M205 X30 Y30
G0 F2625 X14.757 Y21.19
M204 S3000
M205 X20 Y20
G1 F2100 X15.778 Y20.449 E15.73297
G1 X15.926 Y20.355 E15.74171
G1 X17.02 Y19.754 E15.80399
G1 X17.18 Y19.679 E15.8128
G1 X18.35 Y19.217 E15.87556
G1 X18.517 Y19.163 E15.88432
G1 X19.739 Y18.85 E15.94725
G1 X19.911 Y18.817 E15.95599
G1 X21.15 Y18.661 E16.01829
G1 X21.325 Y18.65 E16.02704
G1 X82.572 Y18.65 E19.08266
G1 X82.747 Y18.661 E19.09141
G1 X83.986 Y18.817 E19.15371
G1 X84.159 Y18.85 E19.1625
G1 X85.393 Y19.167 E19.22606
G1 X85.561 Y19.222 E19.23488
G1 X86.731 Y19.686 E19.29768
G1 X86.891 Y19.761 E19.30649
G1 X87.983 Y20.363 E19.3687
G1 X88.131 Y20.457 E19.37745
G1 X89.151 Y21.199 E19.44038
G1 X89.285 Y21.31 E19.44906
G1 X90.201 Y22.17 E19.51174
G1 X90.322 Y22.298 E19.52053
G1 X91.114 Y23.255 E19.58251
G1 X91.217 Y23.397 E19.59126
G1 X91.898 Y24.469 E19.65462
G1 X91.983 Y24.625 E19.66348
G1 X92.515 Y25.759 E19.72597
G1 X92.58 Y25.923 E19.73478
G1 X92.967 Y27.118 E19.79744
G1 X93.01 Y27.287 E19.80614
G1 X93.244 Y28.516 E19.86856
G1 X93.266 Y28.689 E19.87726
G1 X93.346 Y29.944 E19.94
G1 X93.349 Y30.033 E19.94444
G1 X93.349 Y90.026 E22.9375
G1 X93.346 Y90.115 E22.94195
G1 X93.265 Y91.384 E23.00539
G1 X93.243 Y91.559 E23.01419
G1 X93.007 Y92.787 E23.07657
G1 X92.964 Y92.955 E23.08522
G1 X92.577 Y94.147 E23.14775
G1 X92.512 Y94.311 E23.15655
G1 X91.977 Y95.448 E23.21924
G1 X91.891 Y95.603 E23.22809
G1 X91.216 Y96.664 E23.29082
G1 X91.113 Y96.806 E23.29957
G1 X90.312 Y97.773 E23.36222
G1 X90.191 Y97.902 E23.37104
G1 X89.275 Y98.76 E23.43366
G1 X89.14 Y98.871 E23.44238
G1 X88.119 Y99.612 E23.50532
G1 X87.971 Y99.706 E23.51407
G1 X86.877 Y100.307 E23.57634
G1 X86.717 Y100.382 E23.58516
G1 X85.547 Y100.844 E23.64791
G1 X85.38 Y100.898 E23.65667
G1 X84.158 Y101.211 E23.7196
G1 X83.986 Y101.244 E23.72834
G1 X82.747 Y101.4 E23.79064
G1 X82.572 Y101.411 E23.79939
G1 X21.313 Y101.41 E26.85561
G1 X21.136 Y101.399 E26.86446
G1 X19.897 Y101.241 E26.92678
G1 X19.726 Y101.208 E26.93547
G1 X18.504 Y100.894 E26.99841
G1 X18.336 Y100.839 E27.00723
G1 X17.166 Y100.375 E27.07003
G1 X17.006 Y100.3 E27.07884
G1 X15.914 Y99.698 E27.14105
G1 X15.766 Y99.604 E27.1498
G1 X14.746 Y98.862 E27.21273
G1 X14.612 Y98.751 E27.22141
G1 X13.696 Y97.891 E27.28409
G1 X13.575 Y97.763 E27.29288
G1 X12.783 Y96.806 E27.35485
G1 X12.68 Y96.664 E27.36361
G1 X11.999 Y95.592 E27.42697
G1 X11.914 Y95.436 E27.43583
G1 X11.381 Y94.3 E27.49843
G1 X11.316 Y94.136 E27.50724
G1 X10.93 Y92.942 E27.56984
G1 X10.887 Y92.773 E27.57854
G1 X10.653 Y91.544 E27.64096
G1 X10.631 Y91.37 E27.64971
G1 X10.552 Y90.116 E27.71239
G1 X10.549 Y90.028 E27.71679
G1 X10.549 Y30.033 E30.70995
G1 X10.552 Y29.945 E30.71434
G1 X10.632 Y28.679 E30.77763
G1 X10.654 Y28.503 E30.78648
G1 X10.89 Y27.273 E30.84896
G1 X10.934 Y27.104 E30.85767
G1 X11.321 Y25.913 E30.92015
G1 X11.385 Y25.75 E30.92889
G1 X11.92 Y24.613 E30.99158
G1 X12.006 Y24.458 E31.00042
G1 X12.681 Y23.397 E31.06316
G1 X12.784 Y23.255 E31.07191
G1 X13.585 Y22.288 E31.13456
G1 X13.706 Y22.159 E31.14338
G1 X14.622 Y21.301 E31.206
G1 X14.757 Y21.19 E31.21472
M204 S5000
M205 X30 Y30
G0 F2625 X14.992 Y21.514
M204 S3000
M205 X20 Y20
G1 F2100 X16.013 Y20.773 E31.27766
G1 X16.119 Y20.706 E31.28391
G1 X17.213 Y20.105 E31.34619
G1 X17.327 Y20.051 E31.35248
G1 X18.497 Y19.589 E31.41524
G1 X18.616 Y19.55 E31.42148
G1 X19.838 Y19.237 E31.48442
G1 X19.961 Y19.214 E31.49066
G1 X21.2 Y19.058 E31.55296
G1 X21.325 Y19.05 E31.55921
G1 X82.572 Y19.05 E34.61484
G1 X82.697 Y19.058 E34.62109
G1 X83.936 Y19.214 E34.68339
G1 X84.06 Y19.237 E34.68968
G1 X85.294 Y19.554 E34.75324
G1 X85.414 Y19.593 E34.75954
G1 X86.584 Y20.057 E34.82233
G1 X86.698 Y20.111 E34.82863
G1 X87.79 Y20.713 E34.89084
G1 X87.895 Y20.78 E34.89705
G1 X88.915 Y21.522 E34.95998
G1 X89.011 Y21.602 E34.96621
G1 X89.927 Y22.462 E35.0289
G1 X90.013 Y22.553 E35.03514
G1 X90.805 Y23.51 E35.09712
G1 X90.879 Y23.612 E35.10341
G1 X91.56 Y24.684 E35.16677
G1 X91.621 Y24.795 E35.17309
G1 X92.153 Y25.929 E35.23558
G1 X92.199 Y26.046 E35.24185
G1 X92.586 Y27.241 E35.30452
G1 X92.617 Y27.362 E35.31075
G1 X92.851 Y28.591 E35.37317
G1 X92.867 Y28.714 E35.37935
G1 X92.947 Y29.969 E35.44209
G1 X92.949 Y30.033 E35.44529
G1 X92.949 Y90.026 E38.43835
G1 X92.947 Y90.09 E38.44155
G1 X92.866 Y91.359 E38.50499
G1 X92.85 Y91.484 E38.51127
G1 X92.614 Y92.712 E38.57366
G1 X92.583 Y92.832 E38.57984
G1 X92.196 Y94.024 E38.64237
G1 X92.15 Y94.141 E38.64864
G1 X91.615 Y95.278 E38.71133
G1 X91.554 Y95.389 E38.71765
G1 X90.879 Y96.45 E38.78039
G1 X90.805 Y96.551 E38.78663
G1 X90.004 Y97.518 E38.84928
G1 X89.918 Y97.61 E38.85556
G1 X89.002 Y98.468 E38.91818
G1 X88.905 Y98.547 E38.92442
G1 X87.884 Y99.288 E38.98736
G1 X87.778 Y99.355 E38.99361
G1 X86.684 Y99.956 E39.05589
G1 X86.57 Y100.01 E39.06218
G1 X85.4 Y100.472 E39.12494
G1 X85.281 Y100.511 E39.13119
G1 X84.059 Y100.824 E39.19412
G1 X83.936 Y100.847 E39.20036
G1 X82.697 Y101.003 E39.26267
G1 X82.572 Y101.011 E39.26891
G1 X21.313 Y101.01 E42.32514
G1 X21.187 Y101.002 E42.33144
G1 X19.948 Y100.844 E42.39375
G1 X19.825 Y100.821 E42.39999
G1 X18.603 Y100.507 E42.46294
G1 X18.483 Y100.468 E42.46924
G1 X17.313 Y100.004 E42.53203
G1 X17.199 Y99.95 E42.53832
G1 X16.107 Y99.348 E42.60053
G1 X16.002 Y99.281 E42.60675
G1 X14.982 Y98.539 E42.66968
G1 X14.886 Y98.459 E42.67591
G1 X13.97 Y97.599 E42.73859
G1 X13.884 Y97.508 E42.74484
G1 X13.092 Y96.551 E42.80682
G1 X13.018 Y96.449 E42.8131
G1 X12.337 Y95.377 E42.87646
G1 X12.276 Y95.266 E42.88278
G1 X11.743 Y94.13 E42.94539
G1 X11.696 Y94.013 E42.95168
G1 X11.31 Y92.819 E43.01428
G1 X11.28 Y92.698 E43.0205
G1 X11.046 Y91.469 E43.08292
G1 X11.03 Y91.345 E43.08916
G1 X10.951 Y90.091 E43.15184
G1 X10.949 Y90.028 E43.15499
G1 X10.949 Y30.033 E46.14815
G1 X10.951 Y29.97 E46.15129
G1 X11.031 Y28.704 E46.21458
G1 X11.047 Y28.579 E46.22087
G1 X11.283 Y27.349 E46.28335
G1 X11.314 Y27.228 E46.28958
G1 X11.701 Y26.037 E46.35206
G1 X11.747 Y25.92 E46.35833
G1 X12.282 Y24.783 E46.42102
G1 X12.343 Y24.672 E46.42734
G1 X13.018 Y23.611 E46.49008
G1 X13.092 Y23.51 E46.49633
G1 X13.893 Y22.543 E46.55897
G1 X13.979 Y22.451 E46.56526
G1 X14.895 Y21.593 E46.62787
G1 X14.992 Y21.514 E46.63411
M204 S5000
M205 X30 Y30
G0 F2625 X15.227 Y21.837
M204 S3000
M205 X20 Y20
G1 F2100 X16.248 Y21.096 E46.69705
G1 X16.311 Y21.056 E46.70078
G1 X17.405 Y20.455 E46.76305
G1 X17.474 Y20.423 E46.76684
G1 X18.644 Y19.961 E46.8296
G1 X18.715 Y19.938 E46.83333
G1 X19.937 Y19.625 E46.89626
G1 X20.011 Y19.611 E46.90002
G1 X21.25 Y19.455 E46.96232
G1 X21.325 Y19.45 E46.96607
G1 X82.572 Y19.45 E50.02169
G1 X82.647 Y19.455 E50.02544
G1 X83.886 Y19.611 E50.08775
G1 X83.96 Y19.625 E50.0915
G1 X85.194 Y19.942 E50.15507
G1 X85.266 Y19.965 E50.15884
G1 X86.436 Y20.429 E50.22163
G1 X86.505 Y20.462 E50.22545
G1 X87.597 Y21.064 E50.28766
G1 X87.66 Y21.104 E50.29138
G1 X88.68 Y21.846 E50.35431
G1 X88.738 Y21.894 E50.35807
G1 X89.654 Y22.754 E50.42075
G1 X89.705 Y22.808 E50.42446
G1 X90.497 Y23.765 E50.48643
G1 X90.541 Y23.826 E50.49018
G1 X91.222 Y24.898 E50.55354
G1 X91.259 Y24.965 E50.55736
G1 X91.791 Y26.099 E50.61985
G1 X91.819 Y26.169 E50.62362
G1 X92.206 Y27.364 E50.68628
G1 X92.224 Y27.437 E50.69003
G1 X92.458 Y28.666 E50.75245
G1 X92.468 Y28.74 E50.75618
G1 X92.549 Y30.033 E50.82081
G1 X92.548 Y90.064 E53.81577
G1 X92.467 Y91.333 E53.87921
G1 X92.457 Y91.408 E53.88298
G1 X92.221 Y92.636 E53.94537
G1 X92.203 Y92.708 E53.94907
G1 X91.816 Y93.9 E54.0116
G1 X91.788 Y93.97 E54.01536
G1 X91.253 Y95.107 E54.07805
G1 X91.216 Y95.174 E54.08187
G1 X90.541 Y96.235 E54.14461
G1 X90.497 Y96.296 E54.14836
G1 X89.696 Y97.263 E54.211
G1 X89.644 Y97.318 E54.21478
G1 X88.728 Y98.176 E54.2774
G1 X88.67 Y98.224 E54.28115
G1 X87.649 Y98.965 E54.34409
G1 X87.586 Y99.005 E54.34781
G1 X86.492 Y99.606 E54.41009
G1 X86.423 Y99.638 E54.41388
G1 X85.253 Y100.1 E54.47664
G1 X85.182 Y100.123 E54.48036
G1 X83.96 Y100.436 E54.5433
G1 X83.886 Y100.45 E54.54705
G1 X82.647 Y100.606 E54.60936
G1 X82.572 Y100.611 E54.61311
G1 X21.313 Y100.61 E57.66933
G1 X21.237 Y100.605 E57.67313
G1 X19.998 Y100.447 E57.73544
G1 X19.925 Y100.433 E57.73915
G1 X18.703 Y100.119 E57.8021
G1 X18.631 Y100.096 E57.80587
G1 X17.461 Y99.632 E57.86866
G1 X17.392 Y99.599 E57.87248
G1 X16.3 Y98.997 E57.93469
G1 X16.237 Y98.957 E57.93841
G1 X15.217 Y98.215 E58.00134
G1 X15.159 Y98.167 E58.0051
G1 X14.243 Y97.307 E58.06778
G1 X14.192 Y97.253 E58.07149
G1 X13.4 Y96.296 E58.13346
G1 X13.356 Y96.235 E58.13722
G1 X12.675 Y95.163 E58.20058
G1 X12.638 Y95.096 E58.2044
G1 X12.105 Y93.96 E58.267
G1 X12.077 Y93.89 E58.27076
G1 X11.691 Y92.696 E58.33336
G1 X11.673 Y92.623 E58.33712
G1 X11.439 Y91.394 E58.39953
G1 X11.429 Y91.32 E58.40326
G1 X11.349 Y90.028 E58.46784
G1 X11.35 Y29.995 E61.4629
G1 X11.43 Y28.729 E61.52618
G1 X11.44 Y28.654 E61.52996
G1 X11.676 Y27.424 E61.59244
G1 X11.694 Y27.352 E61.59615
G1 X12.081 Y26.161 E61.65862
G1 X12.109 Y26.091 E61.66239
G1 X12.644 Y24.954 E61.72508
G1 X12.681 Y24.887 E61.72889
G1 X13.356 Y23.826 E61.79163
G1 X13.4 Y23.765 E61.79538
G1 X14.201 Y22.798 E61.85803
G1 X14.253 Y22.743 E61.86181
G1 X15.169 Y21.885 E61.92442
G1 X15.227 Y21.837 E61.92818
M204 S5000
M205 X30 Y30
G0 F2625 X15.442 Y22.177
M204 S3000
M205 X20 Y20
G1 F2100 X16.483 Y21.42 E61.99239
G1 X17.598 Y20.806 E62.0559
G1 X17.621 Y20.795 E62.05717
G1 X18.814 Y20.325 E62.12114
G1 X20.036 Y20.012 E62.18408
G1 X21.3 Y19.852 E62.24764
G1 X21.325 Y19.85 E62.24889
G1 X82.572 Y19.85 E65.30452
G1 X83.836 Y20.008 E65.36807
G1 X83.861 Y20.012 E65.36933
G1 X85.095 Y20.329 E65.43289
G1 X86.289 Y20.801 E65.49695
G1 X86.312 Y20.812 E65.49822
G1 X87.425 Y21.427 E65.56166
G1 X88.445 Y22.169 E65.62459
G1 X89.38 Y23.045 E65.68851
G1 X89.397 Y23.063 E65.68975
G1 X90.189 Y24.02 E65.75172
G1 X90.885 Y25.113 E65.81637
G1 X90.897 Y25.135 E65.81762
G1 X91.429 Y26.269 E65.88011
G1 X91.438 Y26.292 E65.88134
G1 X91.825 Y27.487 E65.94401
G1 X92.065 Y28.741 E66.00771
G1 X92.069 Y28.765 E66.00892
G1 X92.149 Y30.02 E66.07166
G1 X92.149 Y90.039 E69.06602
G1 X92.068 Y91.308 E69.12946
G1 X91.828 Y92.561 E69.19311
G1 X91.822 Y92.585 E69.19434
G1 X91.435 Y93.777 E69.25687
G1 X91.426 Y93.8 E69.2581
G1 X90.891 Y94.937 E69.32079
G1 X90.879 Y94.959 E69.32204
G1 X90.189 Y96.041 E69.38607
G1 X89.388 Y97.008 E69.44871
G1 X89.371 Y97.026 E69.44995
G1 X88.455 Y97.884 E69.51256
G1 X87.414 Y98.641 E69.57678
G1 X86.299 Y99.255 E69.64028
G1 X86.276 Y99.266 E69.64155
G1 X85.083 Y99.736 E69.70553
G1 X83.861 Y100.049 E69.76846
G1 X82.597 Y100.209 E69.83202
G1 X82.572 Y100.211 E69.83328
G1 X21.313 Y100.21 E72.8895
G1 X20.049 Y100.05 E72.95306
G1 X20.024 Y100.046 E72.95433
G1 X18.802 Y99.732 E73.01727
G1 X17.608 Y99.26 E73.08133
G1 X17.585 Y99.249 E73.0826
G1 X16.472 Y98.634 E73.14604
G1 X15.452 Y97.892 E73.20897
G1 X14.517 Y97.016 E73.27289
G1 X14.5 Y96.998 E73.27413
G1 X13.708 Y96.041 E73.3361
G1 X13.012 Y94.948 E73.40075
G1 X13 Y94.926 E73.402
G1 X12.467 Y93.79 E73.4646
G1 X12.458 Y93.767 E73.46583
G1 X12.072 Y92.573 E73.52844
G1 X11.832 Y91.319 E73.59214
G1 X11.828 Y91.295 E73.59335
G1 X11.749 Y90.041 E73.65604
G1 X11.749 Y30.02 E76.6505
G1 X11.829 Y28.754 E76.71378
G1 X12.069 Y27.499 E76.77753
G1 X12.075 Y27.475 E76.77876
G1 X12.462 Y26.284 E76.84124
G1 X12.471 Y26.261 E76.84247
G1 X13.006 Y25.124 E76.90516
G1 X13.018 Y25.102 E76.90641
G1 X13.708 Y24.02 E76.97044
G1 X14.509 Y23.053 E77.03308
G1 X14.526 Y23.035 E77.03432
G1 X15.442 Y22.177 E77.09693
M204 S5000
M205 X30 Y30
G0 F2625 X20.281 Y28.042
M204 S3000
M205 X20 Y20
;TYPE:SUPPORT
G1 F2100 X20.547 Y27.844 E77.11348
G1 X20.82 Y27.69 E77.12912
G1 X21.136 Y27.564 E77.14609
G1 X21.445 Y27.481 E77.16205
G1 X21.761 Y27.44 E77.17795
G1 X22.086 Y27.437 E77.19416
G1 X22.418 Y27.477 E77.21085
G1 X22.732 Y27.556 E77.227
G1 X23.037 Y27.673 E77.2433
G1 X23.33 Y27.832 E77.25993
G1 X23.584 Y28.013 E77.27549
G1 X23.831 Y28.244 E77.29236
G1 X24.05 Y28.504 E77.30932
G1 X24.226 Y28.779 E77.32561
G1 X24.365 Y29.075 E77.34193
G1 X24.467 Y29.389 E77.3584
G1 X24.524 Y29.686 E77.37348
G1 X24.545 Y30.03 E77.39068
G1 X24.524 Y30.372 E77.40777
G1 X24.469 Y30.665 E77.42265
G1 X24.365 Y30.985 E77.43943
G1 X24.225 Y31.284 E77.45591
G1 X24.047 Y31.563 E77.47242
G1 X23.85 Y31.801 E77.48783
G1 X23.622 Y32.016 E77.50346
G1 X23.35 Y32.217 E77.52034
G1 X23.075 Y32.37 E77.53604
G1 X22.76 Y32.498 E77.553
G1 X22.456 Y32.579 E77.5687
