;FLAVOR:Marlin
;TIME:3149
;Filament used: 1.91163m
;Layer height: 0.15
;MINX:11.219
;MINY:17.719
;MINZ:0.3
;MAXX:79.817
;MAXY:86.317
;MAXZ:5.85
;Generated with Cura_SteamEngine 4.8.0
M140 S60
M105
M190 S60
M104 S205
M105
M109 S205
M82 ;absolute extrusion mode
G21 ;metric values
 G90 ;absolute positioning
 M82 ;set extruder to absolute mode
 M107 ;start with the fan off
 G28 X0 Y0 ;move X/Y to min endstops
 G28 Z0 ;move Z to min endstops
 G1 Z15.0 F50 ;move the platform down 15mm
 G92 E0 ;zero the extruded length
 G1 F200 E6 ;extrude 6 mm of feed stock
 G92 E0 ;zero the extruded length again
 G1 F50 
 ;Put printing message on LCD screen
 M117 Printing...
G92 E0
G92 E0
;LAYER_COUNT:38
;LAYER:0
M107
M204 S5000
M205 X30 Y30
G0 F2625 X23.611 Y25.627 Z0.3
M204 S3000
M205 X20 Y20
;TYPE:SKIRT
G1 F2100 X23.698 Y25.555 E0.00563
G1 X25.311 Y24.304 E0.10747
G1 X25.402 Y24.237 E0.11311
G1 X27.092 Y23.088 E0.21507
G1 X27.187 Y23.028 E0.22067
G1 X28.943 Y21.989 E0.32247
G1 X29.043 Y21.934 E0.32816
G1 X30.863 Y21.007 E0.43006
G1 X30.965 Y20.959 E0.43568
G1 X32.839 Y20.148 E0.53756
G1 X32.945 Y20.106 E0.54325
G1 X34.867 Y19.415 E0.64514
G1 X34.974 Y19.38 E0.65076
G1 X36.933 Y18.811 E0.75253
G1 X37.042 Y18.783 E0.75815
G1 X39.035 Y18.337 E0.86004
G1 X39.146 Y18.316 E0.86568
G1 X41.163 Y17.996 E0.96756
G1 X41.276 Y17.982 E0.97324
G1 X43.31 Y17.79 E1.07517
G1 X43.423 Y17.783 E1.08082
G1 X45.462 Y17.719 E1.1826
G1 X45.574 Y17.719 E1.18818
G1 X47.614 Y17.783 E1.29001
G1 X47.727 Y17.79 E1.29566
G1 X49.761 Y17.982 E1.39759
G1 X49.874 Y17.996 E1.40327
G1 X51.89 Y18.316 E1.5051
G1 X52.001 Y18.337 E1.51074
G1 X53.995 Y18.783 E1.61268
G1 X54.104 Y18.812 E1.61831
G1 X56.062 Y19.381 E1.72003
G1 X56.169 Y19.415 E1.72563
G1 X58.091 Y20.106 E1.82753
G1 X58.197 Y20.148 E1.83322
G1 X60.071 Y20.959 E1.93509
G1 X60.173 Y21.007 E1.94072
G1 X61.993 Y21.934 E2.04262
G1 X62.092 Y21.989 E2.04827
G1 X63.849 Y23.028 E2.1501
G1 X63.945 Y23.089 E2.15578
G1 X65.633 Y24.237 E2.25762
G1 X65.724 Y24.302 E2.2632
G1 X67.338 Y25.553 E2.36508
G1 X67.425 Y25.626 E2.37075
G1 X68.956 Y26.976 E2.47258
G1 X69.038 Y27.053 E2.4782
G1 X70.482 Y28.496 E2.58004
G1 X70.561 Y28.579 E2.58576
G1 X71.91 Y30.111 E2.6876
G1 X71.981 Y30.198 E2.6932
G1 X73.232 Y31.811 E2.79504
G1 X73.299 Y31.902 E2.80068
G1 X74.448 Y33.592 E2.90263
G1 X74.508 Y33.687 E2.90824
G1 X75.547 Y35.443 E3.01003
G1 X75.602 Y35.543 E3.01573
G1 X76.529 Y37.363 E3.11763
G1 X76.577 Y37.465 E3.12325
G1 X77.388 Y39.339 E3.22513
G1 X77.429 Y39.444 E3.23075
G1 X78.121 Y41.365 E3.33262
G1 X78.157 Y41.474 E3.33834
G1 X78.725 Y43.434 E3.44015
G1 X78.752 Y43.541 E3.44566
G1 X79.199 Y45.533 E3.54751
G1 X79.221 Y45.646 E3.55325
G1 X79.54 Y47.663 E3.65513
G1 X79.554 Y47.775 E3.66076
G1 X79.746 Y49.808 E3.76264
G1 X79.753 Y49.921 E3.76829
G1 X79.817 Y51.961 E3.87012
G1 X79.817 Y52.073 E3.8757
G1 X79.753 Y54.114 E3.97758
G1 X79.746 Y54.227 E3.98323
G1 X79.554 Y56.26 E4.08511
G1 X79.54 Y56.372 E4.09074
G1 X79.221 Y58.389 E4.19262
G1 X79.199 Y58.502 E4.19836
G1 X78.752 Y60.496 E4.30031
G1 X78.725 Y60.603 E4.30582
G1 X78.157 Y62.561 E4.40753
G1 X78.122 Y62.67 E4.41324
G1 X77.43 Y64.592 E4.51515
G1 X77.388 Y64.697 E4.5208
G1 X76.577 Y66.571 E4.62267
G1 X76.529 Y66.673 E4.62829
G1 X75.603 Y68.492 E4.73013
G1 X75.548 Y68.591 E4.73578
G1 X74.508 Y70.349 E4.83768
G1 X74.447 Y70.445 E4.84336
G1 X73.299 Y72.133 E4.9452
G1 X73.233 Y72.224 E4.95081
G1 X71.982 Y73.837 E5.05265
G1 X71.911 Y73.924 E5.05825
G1 X70.562 Y75.456 E5.16009
G1 X70.484 Y75.539 E5.16577
G1 X69.04 Y76.983 E5.26766
G1 X68.957 Y77.061 E5.27334
G1 X67.426 Y78.41 E5.37514
G1 X67.339 Y78.482 E5.38078
G1 X65.725 Y79.733 E5.48265
G1 X65.634 Y79.798 E5.48823
G1 X63.945 Y80.947 E5.59015
G1 X63.849 Y81.008 E5.59582
G1 X62.092 Y82.047 E5.69766
G1 X61.993 Y82.102 E5.70331
G1 X60.173 Y83.029 E5.80521
G1 X60.071 Y83.077 E5.81083
G1 X58.197 Y83.888 E5.91271
G1 X58.091 Y83.93 E5.91839
G1 X56.169 Y84.621 E6.02029
G1 X56.062 Y84.655 E6.02589
G1 X54.104 Y85.224 E6.12762
G1 X53.995 Y85.253 E6.13325
G1 X52.001 Y85.699 E6.23519
G1 X51.89 Y85.72 E6.24082
G1 X49.874 Y86.04 E6.34266
G1 X49.761 Y86.054 E6.34834
G1 X47.727 Y86.246 E6.45027
G1 X47.614 Y86.253 E6.45592
G1 X45.574 Y86.317 E6.55774
G1 X45.462 Y86.317 E6.56333
G1 X43.423 Y86.253 E6.66511
G1 X43.31 Y86.246 E6.67076
G1 X41.276 Y86.054 E6.77268
G1 X41.163 Y86.04 E6.77836
G1 X39.146 Y85.72 E6.88025
G1 X39.035 Y85.699 E6.88589
G1 X37.042 Y85.253 E6.98778
G1 X36.933 Y85.225 E6.99339
G1 X34.974 Y84.656 E7.09517
G1 X34.867 Y84.621 E7.10078
G1 X32.945 Y83.93 E7.20268
G1 X32.839 Y83.888 E7.20837
G1 X30.965 Y83.077 E7.31024
G1 X30.863 Y83.029 E7.31587
G1 X29.043 Y82.102 E7.41777
G1 X28.943 Y82.047 E7.42346
G1 X27.187 Y81.008 E7.52525
G1 X27.092 Y80.948 E7.53086
G1 X25.402 Y79.799 E7.63282
G1 X25.311 Y79.732 E7.63845
G1 X23.698 Y78.481 E7.74029
G1 X23.611 Y78.41 E7.7459
G1 X22.08 Y77.061 E7.8477
G1 X21.997 Y76.983 E7.85338
G1 X20.553 Y75.539 E7.95526
G1 X20.475 Y75.456 E7.96094
G1 X19.126 Y73.924 E8.06278
G1 X19.055 Y73.838 E8.06835
G1 X17.803 Y72.225 E8.17022
G1 X17.736 Y72.133 E8.1759
G1 X16.589 Y70.445 E8.27771
G1 X16.529 Y70.35 E8.28332
G1 X15.488 Y68.592 E8.38525
G1 X15.433 Y68.492 E8.39094
G1 X14.507 Y66.673 E8.49278
G1 X14.459 Y66.57 E8.49845
G1 X13.649 Y64.696 E8.6003
G1 X13.607 Y64.592 E8.60589
G1 X12.915 Y62.67 E8.70781
G1 X12.881 Y62.562 E8.71346
G1 X12.312 Y60.604 E8.81518
G1 X12.283 Y60.495 E8.82081
G1 X11.837 Y58.501 E8.92275
G1 X11.816 Y58.389 E8.92844
G1 X11.497 Y56.372 E9.03032
G1 X11.483 Y56.261 E9.0359
G1 X11.29 Y54.228 E9.13778
G1 X11.283 Y54.114 E9.14348
G1 X11.219 Y52.075 E9.24525
G1 X11.219 Y51.963 E9.25084
G1 X11.283 Y49.922 E9.35272
G1 X11.29 Y49.808 E9.35842
G1 X11.483 Y47.775 E9.4603
G1 X11.497 Y47.664 E9.46588
G1 X11.816 Y45.647 E9.56776
G1 X11.837 Y45.535 E9.57344
G1 X12.283 Y43.542 E9.67534
G1 X12.311 Y43.433 E9.68095
G1 X12.88 Y41.474 E9.78272
G1 X12.915 Y41.366 E9.78839
G1 X13.607 Y39.444 E9.8903
G1 X13.649 Y39.34 E9.8959
G1 X14.459 Y37.466 E9.99775
G1 X14.507 Y37.363 E10.00342
G1 X15.433 Y35.544 E10.10525
G1 X15.488 Y35.443 E10.11099
G1 X16.529 Y33.686 E10.21288
G1 X16.589 Y33.593 E10.2184
G1 X17.736 Y31.904 E10.32026
G1 X17.803 Y31.811 E10.32598
G1 X19.055 Y30.198 E10.42785
G1 X19.126 Y30.112 E10.43341
G1 X20.475 Y28.58 E10.53525
G1 X20.554 Y28.497 E10.54097
G1 X21.998 Y27.054 E10.64281
G1 X22.08 Y26.977 E10.64843
G1 X23.611 Y25.627 E10.75026
M204 S5000
M205 X30 Y30
G0 F2625 X23.875 Y25.927
M204 S3000
M205 X20 Y20
G1 F2100 X23.943 Y25.871 E10.75466
G1 X25.556 Y24.62 E10.8565
G1 X25.627 Y24.568 E10.86089
G1 X27.317 Y23.419 E10.96284
G1 X27.391 Y23.372 E10.96722
G1 X29.147 Y22.333 E11.06901
G1 X29.225 Y22.29 E11.07345
G1 X31.045 Y21.363 E11.17535
G1 X31.124 Y21.326 E11.17971
G1 X32.998 Y20.515 E11.28158
G1 X33.08 Y20.483 E11.28597
G1 X35.002 Y19.792 E11.38787
G1 X35.086 Y19.765 E11.39227
G1 X37.045 Y19.196 E11.49404
G1 X37.129 Y19.174 E11.49838
G1 X39.122 Y18.728 E11.60027
G1 X39.209 Y18.711 E11.60469
G1 X41.226 Y18.391 E11.70658
G1 X41.313 Y18.38 E11.71095
G1 X43.347 Y18.188 E11.81288
G1 X43.435 Y18.183 E11.81728
G1 X45.474 Y18.119 E11.91905
G1 X45.562 Y18.119 E11.92344
G1 X47.602 Y18.183 E12.02527
G1 X47.69 Y18.188 E12.02967
G1 X49.724 Y18.38 E12.13159
G1 X49.811 Y18.391 E12.13597
G1 X51.827 Y18.711 E12.23781
G1 X51.914 Y18.728 E12.24223
G1 X53.908 Y19.174 E12.34417
G1 X53.993 Y19.196 E12.34855
G1 X55.951 Y19.765 E12.45028
G1 X56.034 Y19.792 E12.45463
G1 X57.956 Y20.483 E12.55653
G1 X58.038 Y20.515 E12.56092
G1 X59.912 Y21.326 E12.66279
G1 X59.991 Y21.363 E12.66715
G1 X61.811 Y22.29 E12.76905
G1 X61.889 Y22.333 E12.77349
G1 X63.646 Y23.372 E12.87533
G1 X63.72 Y23.419 E12.8797
G1 X65.408 Y24.567 E12.98154
G1 X65.479 Y24.618 E12.98591
G1 X67.093 Y25.869 E13.08778
G1 X67.161 Y25.926 E13.09221
G1 X68.692 Y27.276 E13.19405
G1 X68.756 Y27.336 E13.19842
G1 X70.2 Y28.779 E13.30027
G1 X70.261 Y28.844 E13.30472
G1 X71.61 Y30.376 E13.40656
G1 X71.665 Y30.443 E13.41088
G1 X72.916 Y32.056 E13.51272
G1 X72.968 Y32.127 E13.51711
G1 X74.117 Y33.817 E13.61907
G1 X74.164 Y33.891 E13.62344
G1 X75.203 Y35.647 E13.72523
G1 X75.246 Y35.725 E13.72968
G1 X76.173 Y37.545 E13.83158
G1 X76.21 Y37.624 E13.83593
G1 X77.021 Y39.498 E13.9378
G1 X77.053 Y39.58 E13.9422
G1 X77.745 Y41.501 E14.04406
G1 X77.773 Y41.585 E14.04848
G1 X78.341 Y43.545 E14.15029
G1 X78.362 Y43.628 E14.15456
G1 X78.809 Y45.62 E14.25641
G1 X78.826 Y45.708 E14.26088
G1 X79.145 Y47.725 E14.36276
G1 X79.156 Y47.812 E14.36714
G1 X79.348 Y49.845 E14.46902
G1 X79.353 Y49.933 E14.47341
G1 X79.417 Y51.973 E14.57524
G1 X79.417 Y52.061 E14.57963
G1 X79.353 Y54.102 E14.68151
G1 X79.348 Y54.19 E14.6859
G1 X79.156 Y56.223 E14.78778
G1 X79.145 Y56.31 E14.79216
G1 X78.826 Y58.327 E14.89404
G1 X78.809 Y58.414 E14.89846
G1 X78.362 Y60.408 E15.00041
G1 X78.341 Y60.492 E15.00473
G1 X77.773 Y62.45 E15.10644
G1 X77.745 Y62.534 E15.11086
G1 X77.053 Y64.456 E15.21277
G1 X77.021 Y64.538 E15.21716
G1 X76.21 Y66.412 E15.31904
G1 X76.173 Y66.491 E15.32339
G1 X75.247 Y68.31 E15.42522
G1 X75.204 Y68.388 E15.42967
G1 X74.164 Y70.146 E15.53157
G1 X74.117 Y70.22 E15.53595
G1 X72.969 Y71.908 E15.63779
G1 X72.917 Y71.979 E15.64218
G1 X71.666 Y73.592 E15.74402
G1 X71.611 Y73.659 E15.74834
G1 X70.262 Y75.191 E15.85018
G1 X70.201 Y75.256 E15.85463
G1 X68.757 Y76.7 E15.95651
G1 X68.693 Y76.76 E15.96089
G1 X67.162 Y78.109 E16.06269
G1 X67.094 Y78.166 E16.06712
G1 X65.48 Y79.417 E16.169
G1 X65.409 Y79.468 E16.17336
G1 X63.72 Y80.617 E16.27527
G1 X63.646 Y80.664 E16.27965
G1 X61.889 Y81.703 E16.38148
G1 X61.811 Y81.746 E16.38593
G1 X59.991 Y82.673 E16.48783
G1 X59.912 Y82.71 E16.49218
G1 X58.038 Y83.521 E16.59405
G1 X57.956 Y83.553 E16.59845
G1 X56.034 Y84.244 E16.70034
G1 X55.951 Y84.271 E16.7047
G1 X53.993 Y84.84 E16.80642
G1 X53.908 Y84.862 E16.8108
G1 X51.914 Y85.308 E16.91274
G1 X51.827 Y85.325 E16.91717
G1 X49.811 Y85.645 E17.019
G1 X49.724 Y85.656 E17.02338
G1 X47.69 Y85.848 E17.12531
G1 X47.602 Y85.853 E17.1297
G1 X45.562 Y85.917 E17.23153
G1 X45.474 Y85.917 E17.23592
G1 X43.435 Y85.853 E17.3377
G1 X43.347 Y85.848 E17.34209
G1 X41.313 Y85.656 E17.44402
G1 X41.226 Y85.645 E17.4484
G1 X39.209 Y85.325 E17.55028
G1 X39.122 Y85.308 E17.55471
G1 X37.129 Y84.862 E17.6566
G1 X37.045 Y84.84 E17.66093
G1 X35.086 Y84.271 E17.7627
G1 X35.002 Y84.244 E17.76711
G1 X33.08 Y83.553 E17.869
G1 X32.998 Y83.521 E17.87339
G1 X31.124 Y82.71 E17.97527
G1 X31.045 Y82.673 E17.97962
G1 X29.225 Y81.746 E18.08152
G1 X29.147 Y81.703 E18.08596
G1 X27.391 Y80.664 E18.18776
G1 X27.317 Y80.617 E18.19213
G1 X25.627 Y79.468 E18.29409
G1 X25.556 Y79.416 E18.29848
G1 X23.943 Y78.165 E18.40032
G1 X23.875 Y78.109 E18.40471
G1 X22.344 Y76.76 E18.50651
G1 X22.28 Y76.7 E18.51089
G1 X20.836 Y75.256 E18.61277
G1 X20.775 Y75.191 E18.61722
G1 X19.426 Y73.659 E18.71906
G1 X19.371 Y73.592 E18.72338
G1 X18.119 Y71.979 E18.82525
G1 X18.067 Y71.908 E18.82964
G1 X16.92 Y70.22 E18.93146
G1 X16.873 Y70.146 E18.93584
G1 X15.832 Y68.388 E19.03777
G1 X15.789 Y68.31 E19.04221
G1 X14.863 Y66.491 E19.14404
G1 X14.826 Y66.411 E19.14844
G1 X14.016 Y64.537 E19.25029
G1 X13.984 Y64.456 E19.25464
G1 X13.292 Y62.534 E19.35655
G1 X13.265 Y62.451 E19.36091
G1 X12.696 Y60.493 E19.46263
G1 X12.674 Y60.408 E19.46701
G1 X12.228 Y58.414 E19.56895
G1 X12.211 Y58.327 E19.57338
G1 X11.892 Y56.31 E19.67526
G1 X11.881 Y56.223 E19.67963
G1 X11.688 Y54.19 E19.78151
G1 X11.683 Y54.102 E19.78591
G1 X11.619 Y52.063 E19.88769
G1 X11.619 Y51.975 E19.89208
G1 X11.683 Y49.934 E19.99395
G1 X11.688 Y49.846 E19.99835
G1 X11.881 Y47.813 E20.10023
G1 X11.892 Y47.726 E20.10461
G1 X12.211 Y45.709 E20.20649
G1 X12.228 Y45.622 E20.21091
G1 X12.674 Y43.629 E20.3128
G1 X12.696 Y43.545 E20.31713
G1 X13.265 Y41.586 E20.41891
G1 X13.292 Y41.502 E20.42331
G1 X13.984 Y39.58 E20.52522
G1 X14.016 Y39.499 E20.52957
G1 X14.826 Y37.625 E20.63142
G1 X14.863 Y37.545 E20.63582
G1 X15.789 Y35.726 E20.73765
G1 X15.833 Y35.647 E20.74216
G1 X16.874 Y33.89 E20.84405
G1 X16.92 Y33.817 E20.84836
G1 X18.067 Y32.128 E20.95021
G1 X18.119 Y32.057 E20.95461
G1 X19.371 Y30.444 E21.05647
G1 X19.426 Y30.377 E21.0608
G1 X20.775 Y28.845 E21.16264
G1 X20.836 Y28.78 E21.16709
G1 X22.28 Y27.337 E21.26893
G1 X22.344 Y27.277 E21.27331
G1 X23.875 Y25.927 E21.37515
M204 S5000
M205 X30 Y30
G0 F2625 X24.14 Y26.227
M204 S3000
M205 X20 Y20
G1 F2100 X24.188 Y26.187 E21.37826
G1 X25.801 Y24.936 E21.4801
G1 X25.852 Y24.899 E21.48325
G1 X27.542 Y23.75 E21.5852
G1 X27.595 Y23.716 E21.58834
G1 X29.351 Y22.677 E21.69014
G1 X29.406 Y22.647 E21.69326
G1 X31.226 Y21.72 E21.79516
G1 X31.283 Y21.693 E21.79831
G1 X33.157 Y20.882 E21.90018
G1 X33.216 Y20.859 E21.90334
G1 X35.138 Y20.168 E22.00524
G1 X35.197 Y20.149 E22.00833
G1 X37.156 Y19.58 E22.11011
G1 X37.217 Y19.564 E22.11325
G1 X39.21 Y19.118 E22.21514
G1 X39.271 Y19.106 E22.21824
G1 X41.288 Y18.786 E22.32013
G1 X41.351 Y18.778 E22.3233
G1 X43.385 Y18.586 E22.42523
G1 X43.448 Y18.582 E22.42838
G1 X45.487 Y18.518 E22.53015
G1 X45.549 Y18.518 E22.53325
G1 X47.589 Y18.582 E22.63507
G1 X47.652 Y18.586 E22.63822
G1 X49.686 Y18.778 E22.74015
G1 X49.749 Y18.786 E22.74332
G1 X51.765 Y19.106 E22.84516
G1 X51.826 Y19.118 E22.84826
G1 X53.82 Y19.564 E22.9502
G1 X53.881 Y19.58 E22.95334
G1 X55.839 Y20.149 E23.05507
G1 X55.898 Y20.168 E23.05816
G1 X57.82 Y20.859 E23.16006
G1 X57.879 Y20.882 E23.16322
G1 X59.753 Y21.693 E23.26509
G1 X59.81 Y21.72 E23.26824
G1 X61.63 Y22.647 E23.37014
G1 X61.685 Y22.677 E23.37326
G1 X63.442 Y23.716 E23.4751
G1 X63.495 Y23.75 E23.47824
G1 X65.183 Y24.898 E23.58009
G1 X65.234 Y24.935 E23.58323
G1 X66.848 Y26.186 E23.68511
G1 X66.896 Y26.226 E23.68823
G1 X68.427 Y27.576 E23.79006
G1 X68.473 Y27.619 E23.7932
G1 X69.961 Y29.108 E23.89823
G1 X71.31 Y30.64 E24.00007
G1 X72.6 Y32.301 E24.10499
G1 X72.637 Y32.352 E24.10813
G1 X73.786 Y34.042 E24.21009
G1 X73.82 Y34.095 E24.21323
G1 X74.859 Y35.851 E24.31502
G1 X74.889 Y35.906 E24.31815
G1 X75.816 Y37.726 E24.42005
G1 X75.843 Y37.783 E24.4232
G1 X76.654 Y39.657 E24.52507
G1 X76.677 Y39.715 E24.52818
G1 X77.369 Y41.636 E24.63005
G1 X77.956 Y43.657 E24.73504
G1 X77.972 Y43.716 E24.73809
G1 X78.419 Y45.708 E24.83995
G1 X78.431 Y45.771 E24.84315
G1 X78.75 Y47.788 E24.94503
G1 X78.758 Y47.85 E24.94815
G1 X78.95 Y49.883 E25.05002
G1 X78.954 Y49.946 E25.05317
G1 X79.018 Y51.986 E25.155
G1 X79.018 Y52.048 E25.15809
G1 X78.954 Y54.089 E25.25997
G1 X78.95 Y54.152 E25.26312
G1 X78.758 Y56.185 E25.365
G1 X78.75 Y56.247 E25.36811
G1 X78.431 Y58.264 E25.46999
G1 X78.419 Y58.327 E25.47319
G1 X77.972 Y60.321 E25.57514
G1 X77.388 Y62.339 E25.67995
G1 X77.369 Y62.399 E25.68309
G1 X76.677 Y64.321 E25.78501
G1 X76.654 Y64.379 E25.78812
G1 X75.843 Y66.253 E25.88999
G1 X75.816 Y66.31 E25.89314
G1 X74.89 Y68.129 E25.99497
G1 X74.86 Y68.184 E25.9981
G1 X73.82 Y69.942 E26.1
G1 X73.786 Y69.995 E26.10315
G1 X72.638 Y71.683 E26.20499
G1 X72.601 Y71.734 E26.20813
G1 X71.311 Y73.395 E26.31306
G1 X69.962 Y74.927 E26.4149
G1 X68.474 Y76.417 E26.51995
G1 X68.428 Y76.46 E26.5231
G1 X66.897 Y77.809 E26.6249
G1 X66.849 Y77.849 E26.62802
G1 X65.235 Y79.1 E26.72989
G1 X65.184 Y79.137 E26.73304
G1 X63.495 Y80.286 E26.83495
G1 X63.442 Y80.32 E26.83809
G1 X61.685 Y81.359 E26.93993
G1 X61.63 Y81.389 E26.94306
G1 X59.81 Y82.316 E27.04496
G1 X59.753 Y82.343 E27.0481
G1 X57.879 Y83.154 E27.14998
G1 X57.82 Y83.177 E27.15314
G1 X55.898 Y83.868 E27.25503
G1 X55.839 Y83.887 E27.25813
G1 X53.881 Y84.456 E27.35985
G1 X53.82 Y84.472 E27.363
G1 X51.826 Y84.918 E27.46494
G1 X51.765 Y84.93 E27.46804
G1 X49.749 Y85.25 E27.56988
G1 X49.686 Y85.258 E27.57305
G1 X47.652 Y85.45 E27.67497
G1 X47.589 Y85.454 E27.67812
G1 X45.549 Y85.518 E27.77995
G1 X45.487 Y85.518 E27.78304
G1 X43.448 Y85.454 E27.88482
G1 X43.385 Y85.45 E27.88797
G1 X41.351 Y85.258 E27.9899
G1 X41.288 Y85.25 E27.99306
G1 X39.271 Y84.93 E28.09495
G1 X39.21 Y84.918 E28.09805
G1 X37.217 Y84.472 E28.19994
G1 X37.156 Y84.456 E28.20309
G1 X35.197 Y83.887 E28.30486
G1 X35.138 Y83.868 E28.30796
G1 X33.216 Y83.177 E28.40985
G1 X33.157 Y83.154 E28.41301
G1 X31.283 Y82.343 E28.51489
G1 X31.226 Y82.316 E28.51803
