;FLAVOR:Marlin
;TIME:4748
;Filament used: 3.25436m
;Layer height: 0.15
;MINX:14.867
;MINY:14.533
;MINZ:0.3
;MAXX:100.133
;MAXY:65.467
;MAXZ:6
;Generated with Cura_SteamEngine 4.8.0
M140 S60
M105
M190 S60
M104 S205
M105
M109 S205
M82 ;absolute extrusion mode
G21 ;metric values
 G90 ;absolute positioning
 M82 ;set extruder to absolute mode
 M107 ;start with the fan off
 G28 X0 Y0 ;move X/Y to min endstops
 G28 Z0 ;move Z to min endstops
 G1 Z15.0 F50 ;move the platform down 15mm
 G92 E0 ;zero the extruded length
 G1 F200 E6 ;extrude 6 mm of feed stock
 G92 E0 ;zero the extruded length again
 G1 F50 
 ;Put printing message on LCD screen
 M117 Printing...
G92 E0
G92 E0
;LAYER_COUNT:39
;LAYER:0
M107
M204 S5000
M205 X30 Y30
G0 F2625 X59.907 Y16.073 Z0.3
M204 S3000
M205 X20 Y20
;TYPE:SKIRT
G1 F2100 X60.025 Y15.713 E0.0189
G1 X60.215 Y15.386 E0.03777
G1 X60.511 Y15.06 E0.05974
G1 X60.806 Y14.822 E0.07865
G1 X61.144 Y14.651 E0.09755
G1 X61.51 Y14.554 E0.11644
G1 X61.784 Y14.533 E0.13015
G1 X98.216 Y14.533 E1.94775
G1 X98.593 Y14.573 E1.96666
G1 X98.953 Y14.691 E1.98556
G1 X99.28 Y14.881 E2.00443
G1 X99.606 Y15.177 E2.0264
G1 X99.844 Y15.472 E2.04531
G1 X100.015 Y15.81 E2.0642
G1 X100.112 Y16.176 E2.0831
G1 X100.133 Y16.45 E2.09681
G1 X100.133 Y63.55 E4.44663
G1 X100.093 Y63.927 E4.46555
G1 X99.975 Y64.287 E4.48445
G1 X99.785 Y64.614 E4.50332
G1 X99.489 Y64.94 E4.52528
G1 X99.194 Y65.178 E4.5442
G1 X98.856 Y65.349 E4.56309
G1 X98.49 Y65.446 E4.58198
G1 X98.216 Y65.467 E4.59569
G1 X88.484 Y65.467 E5.08122
G1 X88.107 Y65.427 E5.10014
G1 X87.747 Y65.309 E5.11904
G1 X87.42 Y65.119 E5.13791
G1 X87.094 Y64.823 E5.15988
G1 X86.856 Y64.528 E5.17879
G1 X86.685 Y64.19 E5.19768
G1 X86.588 Y63.824 E5.21657
G1 X86.567 Y63.55 E5.23028
G1 X86.567 Y50.39 E5.88684
G1 X86.511 Y49.508 E5.93093
G1 X86.358 Y48.703 E5.97181
G1 X86.101 Y47.912 E6.01331
G1 X85.755 Y47.176 E6.05388
G1 X85.309 Y46.475 E6.09533
G1 X84.786 Y45.843 E6.13626
G1 X84.187 Y45.282 E6.1772
G1 X83.506 Y44.786 E6.21923
G1 X82.799 Y44.397 E6.25949
G1 X82.03 Y44.092 E6.30077
G1 X81.224 Y43.886 E6.34227
G1 X80.412 Y43.783 E6.38311
G1 X79.588 Y43.783 E6.42422
G1 X78.776 Y43.886 E6.46505
G1 X77.97 Y44.092 E6.50655
G1 X77.201 Y44.397 E6.54783
G1 X76.494 Y44.786 E6.58809
G1 X75.813 Y45.282 E6.63012
G1 X75.214 Y45.843 E6.67106
G1 X74.691 Y46.475 E6.71199
G1 X74.245 Y47.176 E6.75344
G1 X73.897 Y47.916 E6.79424
G1 X73.643 Y48.7 E6.83535
G1 X73.489 Y49.508 E6.87639
G1 X73.433 Y50.391 E6.92053
G1 X73.433 Y63.55 E7.57704
G1 X73.393 Y63.927 E7.59595
G1 X73.275 Y64.287 E7.61485
G1 X73.085 Y64.614 E7.63372
G1 X72.789 Y64.94 E7.65569
G1 X72.494 Y65.178 E7.6746
G1 X72.156 Y65.349 E7.6935
G1 X71.79 Y65.446 E7.71239
G1 X71.516 Y65.467 E7.7261
G1 X61.784 Y65.467 E8.21163
G1 X61.407 Y65.427 E8.23054
G1 X61.047 Y65.309 E8.24944
G1 X60.72 Y65.119 E8.26831
G1 X60.394 Y64.823 E8.29028
G1 X60.156 Y64.528 E8.30919
G1 X59.985 Y64.19 E8.32809
G1 X59.888 Y63.824 E8.34698
G1 X59.867 Y63.55 E8.36069
G1 X59.867 Y16.45 E10.71052
G1 X59.907 Y16.073 E10.72943
M204 S5000
M205 X30 Y30
G0 F2625 X60.307 Y16.118
M204 S3000
M205 X20 Y20
G1 F2100 X60.424 Y15.806 E10.74605
G1 X60.794 Y15.343 E10.77562
G1 X61.057 Y15.137 E10.79229
G1 X61.361 Y14.998 E10.80897
G1 X61.784 Y14.933 E10.83032
G1 X98.216 Y14.933 E12.64792
G1 X98.548 Y14.973 E12.6646
G1 X98.86 Y15.09 E12.68123
G1 X99.323 Y15.46 E12.7108
G1 X99.529 Y15.723 E12.72746
G1 X99.668 Y16.027 E12.74414
G1 X99.733 Y16.45 E12.76549
G1 X99.733 Y63.55 E15.11532
G1 X99.693 Y63.882 E15.132
G1 X99.576 Y64.194 E15.14863
G1 X99.206 Y64.657 E15.1782
G1 X98.943 Y64.863 E15.19486
G1 X98.639 Y65.002 E15.21154
G1 X98.216 Y65.067 E15.23289
G1 X88.484 Y65.067 E15.71842
G1 X88.152 Y65.027 E15.73511
G1 X87.84 Y64.91 E15.75173
G1 X87.377 Y64.54 E15.7813
G1 X87.171 Y64.277 E15.79797
G1 X87.032 Y63.973 E15.81464
G1 X86.967 Y63.55 E15.83599
G1 X86.967 Y50.38 E16.49305
G1 X86.909 Y49.456 E16.53924
G1 X86.746 Y48.606 E16.58242
G1 X86.473 Y47.764 E16.62658
G1 X86.106 Y46.982 E16.66967
G1 X85.634 Y46.24 E16.71355
G1 X85.079 Y45.569 E16.75699
G1 X84.439 Y44.97 E16.80072
G1 X83.728 Y44.453 E16.84458
G1 X82.964 Y44.033 E16.88808
G1 X82.151 Y43.71 E16.93172
G1 X81.302 Y43.492 E16.97545
G1 X80.438 Y43.383 E17.0189
G1 X79.562 Y43.383 E17.0626
G1 X78.698 Y43.492 E17.10605
G1 X77.849 Y43.71 E17.14978
G1 X77.036 Y44.033 E17.19343
G1 X76.272 Y44.453 E17.23692
G1 X75.561 Y44.97 E17.28078
G1 X74.921 Y45.569 E17.32451
G1 X74.366 Y46.24 E17.36796
G1 X73.894 Y46.982 E17.41183
G1 X73.526 Y47.765 E17.45499
G1 X73.254 Y48.606 E17.49909
G1 X73.091 Y49.456 E17.54227
G1 X73.033 Y50.381 E17.58851
G1 X73.033 Y63.55 E18.24551
G1 X72.993 Y63.882 E18.2622
G1 X72.876 Y64.194 E18.27882
G1 X72.506 Y64.657 E18.30839
G1 X72.243 Y64.863 E18.32506
G1 X71.939 Y65.002 E18.34173
G1 X71.516 Y65.067 E18.36309
G1 X61.784 Y65.067 E18.84862
G1 X61.452 Y65.027 E18.8653
G1 X61.14 Y64.91 E18.88192
G1 X60.677 Y64.54 E18.91149
G1 X60.471 Y64.277 E18.92816
G1 X60.332 Y63.973 E18.94484
G1 X60.267 Y63.55 E18.96619
G1 X60.267 Y16.45 E21.31602
G1 X60.307 Y16.118 E21.3327
M204 S5000
M205 X30 Y30
G0 F2625 X60.707 Y16.171
M204 S3000
M205 X20 Y20
G1 F2100 X60.823 Y15.914 E21.34677
G1 X61.077 Y15.626 E21.36593
G1 X61.303 Y15.457 E21.38
G1 X61.567 Y15.357 E21.39409
G1 X61.784 Y15.333 E21.40498
G1 X98.216 Y15.333 E23.22258
G1 X98.495 Y15.373 E23.23664
G1 X98.752 Y15.489 E23.25071
G1 X99.04 Y15.743 E23.26987
G1 X99.209 Y15.969 E23.28395
G1 X99.309 Y16.233 E23.29803
G1 X99.333 Y16.45 E23.30892
G1 X99.333 Y63.55 E25.65875
G1 X99.293 Y63.829 E25.67281
G1 X99.177 Y64.086 E25.68688
G1 X98.923 Y64.374 E25.70604
G1 X98.697 Y64.543 E25.72012
G1 X98.433 Y64.643 E25.7342
G1 X98.216 Y64.667 E25.74509
G1 X88.484 Y64.667 E26.23063
G1 X88.205 Y64.627 E26.24469
G1 X87.948 Y64.511 E26.25876
G1 X87.66 Y64.257 E26.27791
G1 X87.491 Y64.031 E26.29199
G1 X87.391 Y63.767 E26.30608
G1 X87.367 Y63.55 E26.31697
G1 X87.367 Y50.37 E26.97452
G1 X87.306 Y49.403 E27.02286
G1 X87.134 Y48.504 E27.06853
G1 X86.847 Y47.619 E27.11494
G1 X86.458 Y46.79 E27.16063
G1 X85.957 Y46.004 E27.20713
G1 X85.368 Y45.291 E27.25327
G1 X84.697 Y44.663 E27.29912
G1 X83.939 Y44.112 E27.34587
G1 X83.136 Y43.67 E27.3916
G1 X82.28 Y43.33 E27.43755
G1 X81.372 Y43.098 E27.48431
G1 X80.465 Y42.983 E27.52992
G1 X79.535 Y42.983 E27.57632
G1 X78.628 Y43.098 E27.62193
G1 X77.72 Y43.33 E27.66869
G1 X76.864 Y43.67 E27.71464
G1 X76.061 Y44.112 E27.76037
G1 X75.303 Y44.663 E27.80712
G1 X74.632 Y45.291 E27.85297
G1 X74.043 Y46.004 E27.89911
G1 X73.542 Y46.791 E27.94566
G1 X73.152 Y47.621 E27.99141
G1 X72.866 Y48.504 E28.03772
G1 X72.694 Y49.403 E28.08338
G1 X72.633 Y50.371 E28.13177
G1 X72.633 Y63.55 E28.78927
G1 X72.593 Y63.829 E28.80334
G1 X72.477 Y64.086 E28.8174
G1 X72.223 Y64.374 E28.83656
G1 X71.997 Y64.543 E28.85064
G1 X71.733 Y64.643 E28.86472
G1 X71.516 Y64.667 E28.87562
G1 X61.784 Y64.667 E29.36115
G1 X61.505 Y64.627 E29.37521
G1 X61.248 Y64.511 E29.38928
G1 X60.96 Y64.257 E29.40843
G1 X60.791 Y64.031 E29.42251
G1 X60.691 Y63.767 E29.4366
G1 X60.667 Y63.55 E29.44749
G1 X60.667 Y16.45 E31.79732
G1 X60.707 Y16.171 E31.81138
M204 S5000
M205 X30 Y30
G0 F2625 X61.107 Y16.235
M204 S3000
M205 X20 Y20
G1 F2100 X61.36 Y15.909 E31.83197
G1 X61.539 Y15.785 E31.84283
G1 X61.784 Y15.733 E31.85533
G1 X98.216 Y15.733 E33.67293
G1 X98.431 Y15.773 E33.68384
G1 X98.757 Y16.026 E33.70442
G1 X98.881 Y16.205 E33.71529
G1 X98.933 Y16.45 E33.72778
G1 X98.933 Y63.55 E36.07761
G1 X98.893 Y63.765 E36.08852
G1 X98.64 Y64.091 E36.10911
G1 X98.461 Y64.215 E36.11997
G1 X98.216 Y64.267 E36.13247
G1 X88.484 Y64.267 E36.618
G1 X88.269 Y64.227 E36.62891
G1 X87.943 Y63.974 E36.6495
G1 X87.819 Y63.795 E36.66036
G1 X87.767 Y63.55 E36.67286
G1 X87.767 Y50.361 E37.33086
G1 X87.703 Y49.35 E37.3814
G1 X87.523 Y48.408 E37.42925
G1 X87.219 Y47.471 E37.47839
G1 X86.807 Y46.593 E37.52678
G1 X86.282 Y45.767 E37.57561
G1 X85.665 Y45.021 E37.62391
G1 X84.95 Y44.352 E37.67276
G1 X84.158 Y43.776 E37.72162
G1 X83.309 Y43.309 E37.76996
G1 X82.396 Y42.947 E37.81896
G1 X81.45 Y42.704 E37.86769
G1 X80.492 Y42.583 E37.91586
G1 X79.508 Y42.583 E37.96495
G1 X78.55 Y42.704 E38.01313
G1 X77.604 Y42.947 E38.06185
G1 X76.691 Y43.309 E38.11085
G1 X75.842 Y43.776 E38.1592
G1 X75.05 Y44.352 E38.20805
G1 X74.335 Y45.021 E38.2569
G1 X73.718 Y45.767 E38.3052
G1 X73.193 Y46.593 E38.35403
G1 X72.78 Y47.473 E38.40253
G1 X72.477 Y48.408 E38.45157
G1 X72.297 Y49.35 E38.49941
G1 X72.233 Y50.362 E38.55
G1 X72.233 Y63.55 E39.20795
G1 X72.193 Y63.765 E39.21886
G1 X71.94 Y64.091 E39.23945
G1 X71.761 Y64.215 E39.25032
G1 X71.516 Y64.267 E39.26281
G1 X61.784 Y64.267 E39.74834
G1 X61.569 Y64.227 E39.75925
G1 X61.243 Y63.974 E39.77984
G1 X61.119 Y63.795 E39.7907
G1 X61.067 Y63.55 E39.8032
G1 X61.067 Y16.45 E42.15303
G1 X61.107 Y16.235 E42.16394
M204 S5000
M205 X30 Y30
G0 F2625 X61.467 Y16.45
M204 S3000
M205 X20 Y20
G1 F2100 X61.526 Y16.309 E42.17156
G1 X61.643 Y16.192 E42.17982
G1 X61.784 Y16.133 E42.18745
G1 X98.216 Y16.133 E44.00504
G1 X98.357 Y16.192 E44.01267
G1 X98.474 Y16.309 E44.02093
G1 X98.533 Y16.45 E44.02855
G1 X98.533 Y63.55 E46.37838
G1 X98.474 Y63.691 E46.38601
G1 X98.357 Y63.808 E46.39426
G1 X98.216 Y63.867 E46.40189
G1 X88.484 Y63.867 E46.88742
G1 X88.343 Y63.808 E46.89504
G1 X88.226 Y63.691 E46.9033
G1 X88.167 Y63.55 E46.91092
G1 X88.167 Y50.352 E47.56937
G1 X88.1 Y49.298 E47.62206
G1 X87.911 Y48.306 E47.67245
G1 X87.593 Y47.326 E47.72385
G1 X87.159 Y46.401 E47.77482
G1 X86.605 Y45.531 E47.82628
G1 X85.957 Y44.748 E47.87699
G1 X85.206 Y44.045 E47.92831
G1 X84.365 Y43.433 E47.9802
G1 X83.484 Y42.948 E48.03037
G1 X82.524 Y42.567 E48.0819
G1 X81.519 Y42.31 E48.13366
G1 X80.518 Y42.183 E48.184
G1 X79.482 Y42.183 E48.23568
G1 X78.481 Y42.31 E48.28602
G1 X77.476 Y42.567 E48.33778
G1 X76.516 Y42.948 E48.3893
G1 X75.635 Y43.433 E48.43948
G1 X74.794 Y44.045 E48.49137
G1 X74.043 Y44.748 E48.54269
G1 X73.395 Y45.531 E48.5934
G1 X72.841 Y46.401 E48.64485
G1 X72.406 Y47.328 E48.69594
G1 X72.089 Y48.306 E48.74723
G1 X71.9 Y49.298 E48.79761
G1 X71.833 Y50.353 E48.85035
G1 X71.833 Y63.55 E49.50876
G1 X71.774 Y63.691 E49.51638
G1 X71.657 Y63.808 E49.52464
G1 X71.516 Y63.867 E49.53226
G1 X61.784 Y63.867 E50.01779
G1 X61.643 Y63.808 E50.02542
G1 X61.526 Y63.691 E50.03367
G1 X61.467 Y63.55 E50.0413
G1 X61.467 Y16.45 E52.39113
M204 S5000
M205 X30 Y30
G0 F2625 X61.002 Y16.45
G0 X55.133 Y16.45
M204 S3000
M205 X20 Y20
G1 F2100 X55.133 Y63.55 E54.74096
G1 X55.093 Y63.927 E54.75987
G1 X54.975 Y64.287 E54.77877
G1 X54.785 Y64.614 E54.79764
G1 X54.489 Y64.94 E54.81961
G1 X54.194 Y65.178 E54.83852
G1 X53.856 Y65.349 E54.85742
G1 X53.49 Y65.446 E54.87631
G1 X53.216 Y65.467 E54.89002
G1 X43.484 Y65.467 E55.37555
G1 X43.107 Y65.427 E55.39446
G1 X42.747 Y65.309 E55.41336
G1 X42.42 Y65.119 E55.43223
G1 X42.094 Y64.823 E55.4542
G1 X41.856 Y64.528 E55.47311
G1 X41.685 Y64.19 E55.49201
G1 X41.588 Y63.824 E55.5109
G1 X41.567 Y63.55 E55.52461
G1 X41.567 Y50.39 E56.18116
G1 X41.511 Y49.508 E56.22525
G1 X41.358 Y48.703 E56.26613
G1 X41.101 Y47.912 E56.30763
G1 X40.755 Y47.176 E56.3482
G1 X40.309 Y46.475 E56.38965
G1 X39.786 Y45.843 E56.43058
G1 X39.187 Y45.282 E56.47153
G1 X38.506 Y44.786 E56.51356
G1 X37.799 Y44.397 E56.55382
G1 X37.03 Y44.092 E56.59509
G1 X36.224 Y43.886 E56.63659
G1 X35.412 Y43.783 E56.67743
G1 X34.588 Y43.783 E56.71854
G1 X33.776 Y43.886 E56.75937
G1 X32.97 Y44.092 E56.80088
G1 X32.201 Y44.397 E56.84215
G1 X31.494 Y44.786 E56.88241
G1 X30.813 Y45.282 E56.92444
G1 X30.214 Y45.843 E56.96539
G1 X29.691 Y46.475 E57.00631
G1 X29.245 Y47.176 E57.04776
G1 X28.897 Y47.916 E57.08856
G1 X28.643 Y48.7 E57.12968
G1 X28.489 Y49.508 E57.17071
G1 X28.433 Y50.391 E57.21485
G1 X28.433 Y63.55 E57.87136
G1 X28.393 Y63.927 E57.89027
G1 X28.275 Y64.287 E57.90917
G1 X28.085 Y64.614 E57.92804
G1 X27.789 Y64.94 E57.95001
G1 X27.494 Y65.178 E57.96892
G1 X27.156 Y65.349 E57.98782
G1 X26.79 Y65.446 E58.00671
G1 X26.516 Y65.467 E58.02042
G1 X16.784 Y65.467 E58.50595
G1 X16.407 Y65.427 E58.52487
G1 X16.047 Y65.309 E58.54377
G1 X15.72 Y65.119 E58.56263
G1 X15.394 Y64.823 E58.5846
G1 X15.156 Y64.528 E58.60351
G1 X14.985 Y64.19 E58.62241
G1 X14.888 Y63.824 E58.6413
G1 X14.867 Y63.55 E58.65501
G1 X14.867 Y16.45 E61.00484
G1 X14.907 Y16.073 E61.02375
G1 X15.025 Y15.713 E61.04265
G1 X15.215 Y15.386 E61.06152
G1 X15.511 Y15.06 E61.08349
G1 X15.806 Y14.822 E61.1024
G1 X16.144 Y14.651 E61.1213
G1 X16.51 Y14.554 E61.14019
G1 X16.784 Y14.533 E61.1539
G1 X53.216 Y14.533 E62.9715
G1 X53.593 Y14.573 E62.99041
G1 X53.953 Y14.691 E63.00931
G1 X54.28 Y14.881 E63.02818
G1 X54.606 Y15.177 E63.05015
G1 X54.844 Y15.472 E63.06906
G1 X55.015 Y15.81 E63.08796
G1 X55.112 Y16.176 E63.10685
G1 X55.133 Y16.45 E63.12056
M204 S5000
M205 X30 Y30
G0 F2625 X54.733 Y16.45
M204 S3000
M205 X20 Y20
G1 F2100 X54.733 Y63.55 E65.47039
G1 X54.693 Y63.882 E65.48707
G1 X54.576 Y64.194 E65.50369
G1 X54.206 Y64.657 E65.53326
G1 X53.943 Y64.863 E65.54993
G1 X53.639 Y65.002 E65.56661
G1 X53.216 Y65.067 E65.58796
G1 X43.484 Y65.067 E66.07349
G1 X43.152 Y65.027 E66.09017
G1 X42.84 Y64.91 E66.1068
G1 X42.377 Y64.54 E66.13637
G1 X42.171 Y64.277 E66.15303
G1 X42.032 Y63.973 E66.16971
G1 X41.967 Y63.55 E66.19106
G1 X41.967 Y50.38 E66.84812
G1 X41.909 Y49.456 E66.8943
G1 X41.746 Y48.606 E66.93748
G1 X41.473 Y47.764 E66.98164
G1 X41.106 Y46.982 E67.02474
G1 X40.634 Y46.24 E67.06862
G1 X40.079 Y45.569 E67.11206
G1 X39.439 Y44.97 E67.15579
G1 X38.728 Y44.453 E67.19965
G1 X37.964 Y44.033 E67.24315
G1 X37.151 Y43.71 E67.28679
G1 X36.302 Y43.492 E67.33052
G1 X35.438 Y43.383 E67.37397
G1 X34.562 Y43.383 E67.41767
G1 X33.698 Y43.492 E67.46112
G1 X32.849 Y43.71 E67.50485
G1 X32.036 Y44.033 E67.54849
G1 X31.272 Y44.453 E67.59199
G1 X30.561 Y44.97 E67.63585
G1 X29.921 Y45.569 E67.67958
G1 X29.366 Y46.24 E67.72303
G1 X28.894 Y46.982 E67.7669
G1 X28.526 Y47.765 E67.81006
G1 X28.254 Y48.606 E67.85416
G1 X28.091 Y49.456 E67.89734
G1 X28.033 Y50.381 E67.94358
G1 X28.033 Y63.55 E68.60058
G1 X27.993 Y63.882 E68.61727
G1 X27.876 Y64.194 E68.63389
G1 X27.506 Y64.657 E68.66346
G1 X27.243 Y64.863 E68.68013
G1 X26.939 Y65.002 E68.6968
G1 X26.516 Y65.067 E68.71815
G1 X16.784 Y65.067 E69.20369
G1 X16.452 Y65.027 E69.22037
G1 X16.14 Y64.91 E69.23699
G1 X15.677 Y64.54 E69.26656
G1 X15.471 Y64.277 E69.28323
G1 X15.332 Y63.973 E69.29991
G1 X15.267 Y63.55 E69.32126
G1 X15.267 Y16.45 E71.67109
G1 X15.307 Y16.118 E71.68777
G1 X15.424 Y15.806 E71.70439
G1 X15.794 Y15.343 E71.73396
G1 X16.057 Y15.137 E71.75063
G1 X16.361 Y14.998 E71.76731
G1 X16.784 Y14.933 E71.78866
G1 X53.216 Y14.933 E73.60626
G1 X53.548 Y14.973 E73.62294
G1 X53.86 Y15.09 E73.63956
G1 X54.323 Y15.46 E73.66913
G1 X54.529 Y15.723 E73.6858
G1 X54.668 Y16.027 E73.70248
G1 X54.733 Y16.45 E73.72383
M204 S5000
M205 X30 Y30
G0 F2625 X54.333 Y16.45
M204 S3000
M205 X20 Y20
G1 F2100 X54.333 Y63.55 E76.07366
G1 X54.293 Y63.829 E76.08772
G1 X54.177 Y64.086 E76.10179
G1 X53.923 Y64.374 E76.12094
G1 X53.697 Y64.543 E76.13502
G1 X53.433 Y64.643 E76.14911
G1 X53.216 Y64.667 E76.16
G1 X43.484 Y64.667 E76.64553
G1 X43.205 Y64.627 E76.65959
G1 X42.948 Y64.511 E76.67366
G1 X42.66 Y64.257 E76.69282
G1 X42.491 Y64.031 E76.7069
G1 X42.391 Y63.767 E76.72098
G1 X42.367 Y63.55 E76.73187
G1 X42.367 Y50.37 E77.38943
G1 X42.306 Y49.403 E77.43777
G1 X42.134 Y48.504 E77.48343
G1 X41.847 Y47.619 E77.52985
G1 X41.458 Y46.79 E77.57553
G1 X40.957 Y46.004 E77.62204
G1 X40.368 Y45.291 E77.66817
G1 X39.697 Y44.663 E77.71403
G1 X38.939 Y44.112 E77.76078
G1 X38.136 Y43.67 E77.80651
G1 X37.28 Y43.33 E77.85246
G1 X36.372 Y43.098 E77.89921
G1 X35.465 Y42.983 E77.94483
G1 X34.535 Y42.983 E77.99123
G1 X33.628 Y43.098 E78.03684
G1 X32.72 Y43.33 E78.08359
G1 X31.864 Y43.67 E78.12955
G1 X31.061 Y44.112 E78.17528
G1 X30.303 Y44.663 E78.22203
G1 X29.632 Y45.291 E78.26788
G1 X29.043 Y46.004 E78.31402
G1 X28.542 Y46.791 E78.36056
G1 X28.152 Y47.621 E78.40631
G1 X27.866 Y48.504 E78.45262
G1 X27.694 Y49.403 E78.49829
G1 X27.633 Y50.371 E78.54667
G1 X27.633 Y63.55 E79.20418
G1 X27.593 Y63.829 E79.21824
G1 X27.477 Y64.086 E79.23231
G1 X27.223 Y64.374 E79.25147
