;FLAVOR:Marlin
;TIME:1589
;Filament used: 1.04796m
;Layer height: 0.15
;MINX:18.661
;MINY:16.773
;MINZ:0.3
;MAXX:38.263
;MAXY:36.411
;MAXZ:15
;Generated with Cura_SteamEngine 4.8.0
M140 S60
M105
M190 S60
M104 S205
M105
M109 S205
M82 ;absolute extrusion mode
G21 ;metric values
 G90 ;absolute positioning
 M82 ;set extruder to absolute mode
 M107 ;start with the fan off
 G28 X0 Y0 ;move X/Y to min endstops
 G28 Z0 ;move Z to min endstops
 G1 Z15.0 F50 ;move the platform down 15mm
 G92 E0 ;zero the extruded length
 G1 F200 E6 ;extrude 6 mm of feed stock
 G92 E0 ;zero the extruded length again
 G1 F50 
 ;Put printing message on LCD screen
 M117 Printing...
G92 E0
G92 E0
G1 F1500 E-6.5
;LAYER_COUNT:99
;LAYER:0
M107
M204 S5000
M205 X30 Y30
G0 F2625 X20.226 Y21.309 Z0.3
M204 S3000
M205 X20 Y20
;TYPE:SKIRT
G1 F1500 E0
G1 F2100 X23.161 Y18.374 E0.20708
G1 X23.456 Y18.136 E0.22599
G1 X23.968 Y17.908 E0.25395
G1 X27.978 Y16.832 E0.46109
G1 X28.352 Y16.773 E0.47998
G1 X28.91 Y16.832 E0.50797
G1 X32.921 Y17.906 E0.71513
G1 X33.274 Y18.042 E0.734
G1 X33.728 Y18.372 E0.76201
G1 X36.663 Y21.308 E0.96912
G1 X36.901 Y21.603 E0.98803
G1 X37.129 Y22.115 E1.01599
G1 X38.204 Y26.126 E1.22317
G1 X38.263 Y26.5 E1.24206
G1 X38.204 Y27.058 E1.27005
G1 X37.129 Y31.069 E1.47722
G1 X36.993 Y31.423 E1.49614
G1 X36.662 Y31.876 E1.52413
G1 X33.726 Y34.81 E1.73121
G1 X33.432 Y35.048 E1.75008
G1 X32.92 Y35.276 E1.77805
G1 X28.91 Y36.352 E1.98518
G1 X28.536 Y36.411 E2.00407
G1 X27.978 Y36.352 E2.03207
G1 X23.967 Y35.278 E2.23922
G1 X23.614 Y35.142 E2.2581
G1 X23.16 Y34.812 E2.2861
G1 X20.225 Y31.876 E2.49321
G1 X19.987 Y31.581 E2.51213
G1 X19.759 Y31.069 E2.54009
G1 X18.816 Y27.548 E2.72194
G1 X18.757 Y27.173 E2.74088
G1 X18.778 Y26.795 E2.75977
G1 X18.831 Y26.602 E2.76975
G1 X18.764 Y26.27 E2.78665
G1 X18.768 Y25.891 E2.80556
G1 X18.817 Y25.635 E2.81856
G1 X19.76 Y22.116 E3.00032
G1 X19.896 Y21.762 E3.01924
G1 X20.226 Y21.309 E3.0472
M204 S5000
M205 X30 Y30
G0 F2625 X20.509 Y21.592
M204 S3000
M205 X20 Y20
G1 F2100 X23.444 Y18.657 E3.25428
G1 X23.707 Y18.451 E3.27095
G1 X24.071 Y18.295 E3.29071
G1 X28.081 Y17.219 E3.49784
G1 X28.412 Y17.171 E3.51453
G1 X28.806 Y17.219 E3.53433
G1 X32.817 Y18.293 E3.74149
G1 X33.127 Y18.417 E3.75815
G1 X33.445 Y18.655 E3.77797
G1 X36.38 Y21.591 E3.98508
G1 X36.586 Y21.854 E4.00175
G1 X36.742 Y22.219 E4.02155
G1 X37.817 Y26.23 E4.22872
G1 X37.865 Y26.56 E4.24536
G1 X37.817 Y26.954 E4.26516
G1 X36.742 Y30.965 E4.47233
G1 X36.618 Y31.275 E4.48899
G1 X36.38 Y31.593 E4.50881
G1 X33.444 Y34.527 E4.71589
G1 X33.181 Y34.734 E4.73259
G1 X32.817 Y34.889 E4.75232
G1 X28.807 Y35.965 E4.95946
G1 X28.476 Y36.013 E4.97615
G1 X28.082 Y35.965 E4.99595
G1 X24.071 Y34.891 E5.20311
G1 X23.761 Y34.767 E5.21977
G1 X23.443 Y34.529 E5.23958
G1 X20.508 Y31.593 E5.4467
G1 X20.302 Y31.33 E5.46336
G1 X20.146 Y30.965 E5.48317
G1 X19.203 Y27.444 E5.66502
G1 X19.155 Y27.113 E5.68171
G1 X19.188 Y26.781 E5.69835
G1 X19.25 Y26.603 E5.70776
G1 X19.169 Y26.29 E5.72389
G1 X19.164 Y25.956 E5.74055
G1 X19.204 Y25.739 E5.75156
G1 X20.147 Y22.22 E5.93332
G1 X20.271 Y21.91 E5.94998
G1 X20.509 Y21.592 E5.96979
M204 S5000
M205 X30 Y30
G0 F2625 X20.792 Y21.875
M204 S3000
M205 X20 Y20
G1 F2100 X23.727 Y18.94 E6.17687
G1 X23.953 Y18.771 E6.19095
G1 X24.175 Y18.681 E6.2029
G1 X28.185 Y17.605 E6.41004
G1 X28.465 Y17.571 E6.42411
G1 X28.703 Y17.605 E6.43611
G1 X32.714 Y18.679 E6.64327
G1 X32.973 Y18.79 E6.65732
G1 X33.162 Y18.938 E6.6693
G1 X36.097 Y21.874 E6.87642
G1 X36.267 Y22.1 E6.89052
G1 X36.356 Y22.322 E6.90246
G1 X37.431 Y26.333 E7.10963
G1 X37.465 Y26.613 E7.1237
G1 X37.431 Y26.851 E7.13569
G1 X36.356 Y30.862 E7.34287
G1 X36.245 Y31.121 E7.35693
G1 X36.097 Y31.31 E7.3689
G1 X33.161 Y34.244 E7.57598
G1 X32.935 Y34.414 E7.59009
G1 X32.713 Y34.503 E7.60202
G1 X28.703 Y35.579 E7.80916
G1 X28.423 Y35.613 E7.82323
G1 X28.185 Y35.579 E7.83523
G1 X24.174 Y34.505 E8.04239
G1 X23.915 Y34.394 E8.05644
G1 X23.726 Y34.246 E8.06842
G1 X20.791 Y31.31 E8.27553
G1 X20.621 Y31.084 E8.28964
G1 X20.532 Y30.862 E8.30158
G1 X19.589 Y27.341 E8.48343
G1 X19.555 Y27.061 E8.4975
G1 X19.601 Y26.782 E8.51161
G1 X19.693 Y26.59 E8.52223
G1 X19.568 Y26.256 E8.54002
G1 X19.59 Y25.842 E8.56071
G1 X20.533 Y22.323 E8.74247
G1 X20.644 Y22.064 E8.75652
G1 X20.792 Y21.875 E8.7685
M204 S5000
M205 X30 Y30
G0 F2625 X21.075 Y22.158
M204 S3000
M205 X20 Y20
G1 F2100 X24.01 Y19.223 E8.97558
G1 X24.279 Y19.067 E8.99109
G1 X28.289 Y17.991 E9.19823
G1 X28.599 Y17.991 E9.2137
G1 X32.61 Y19.065 E9.42086
G1 X32.879 Y19.221 E9.43637
G1 X35.814 Y22.157 E9.64349
G1 X35.97 Y22.426 E9.659
G1 X37.045 Y26.437 E9.86617
G1 X37.045 Y26.747 E9.88164
G1 X35.97 Y30.758 E10.08881
G1 X35.814 Y31.027 E10.10432
G1 X32.878 Y33.961 E10.3114
G1 X32.609 Y34.117 E10.32692
G1 X28.599 Y35.193 E10.53405
G1 X28.289 Y35.193 E10.54952
G1 X24.278 Y34.119 E10.75668
G1 X24.009 Y33.963 E10.77219
G1 X21.074 Y31.027 E10.97931
G1 X20.918 Y30.758 E10.99482
G1 X19.975 Y27.237 E11.17668
G1 X19.958 Y27.02 E11.18754
G1 X20.02 Y26.81 E11.19846
G1 X20.226 Y26.591 E11.21346
G1 X20.022 Y26.375 E11.22828
G1 X19.959 Y26.166 E11.23917
G1 X19.976 Y25.946 E11.25018
G1 X20.919 Y22.427 E11.43194
G1 X21.075 Y22.158 E11.44745
M204 S5000
M205 X30 Y30
G0 F2625 X21.358 Y22.441
M204 S3000
M205 X20 Y20
G1 F2100 X24.293 Y19.506 E11.65453
G1 X24.382 Y19.454 E11.65968
G1 X28.392 Y18.378 E11.86681
G1 X28.496 Y18.378 E11.872
G1 X32.507 Y19.452 E12.07916
G1 X32.596 Y19.504 E12.0843
G1 X35.531 Y22.44 E12.29142
G1 X35.583 Y22.529 E12.29656
G1 X36.658 Y26.54 E12.50373
G1 X36.658 Y26.644 E12.50892
G1 X35.583 Y30.655 E12.71609
G1 X35.531 Y30.744 E12.72124
G1 X32.595 Y33.678 E12.92832
G1 X32.506 Y33.73 E12.93346
G1 X28.496 Y34.806 E13.1406
G1 X28.392 Y34.806 E13.14578
G1 X24.381 Y33.732 E13.35294
G1 X24.292 Y33.68 E13.35809
G1 X21.357 Y30.744 E13.5652
G1 X21.305 Y30.655 E13.57034
G1 X20.362 Y27.134 E13.7522
G1 X20.369 Y27.009 E13.75844
G1 X20.448 Y26.913 E13.76465
G1 X20.555 Y26.882 E13.7702
G1 X28.244 Y26.882 E14.15381
G1 X28.244 Y26.302 E14.18275
G1 X20.556 Y26.301 E14.5663
G1 X20.437 Y26.262 E14.57255
G1 X20.365 Y26.16 E14.57878
G1 X20.363 Y26.049 E14.58432
G1 X21.306 Y22.53 E14.76608
G1 X21.358 Y22.441 E14.77122
M204 S5000
M205 X30 Y30
G1 F1500 E8.27122
;MESH:knob.stl
G0 F2625 X22.053 Y22.902
G0 X29.072 Y25.474
G0 X29.144 Y27.282
G0 X28.644 Y27.282
M204 S3000
M205 X20 Y20
;TYPE:WALL-OUTER
G1 F1500 E14.77122
G1 F2100 X28.644 Y25.902 E14.84007
G1 X21.077 Y25.901 E15.21759
G1 X21.076 Y25.901 E15.21764
G1 X20.817 Y25.901 E15.23056
G1 X20.884 Y25.65 E15.23838
G1 X21.678 Y22.685 E15.39151
G1 X24.537 Y19.826 E15.59323
G1 X28.444 Y18.779 E15.79503
G1 X32.35 Y19.825 E15.99677
G1 X35.211 Y22.684 E16.19856
G1 X36.257 Y26.592 E16.40039
G1 X35.211 Y30.5 E16.60222
G1 X32.351 Y33.358 E16.80394
G1 X28.444 Y34.405 E17.00574
G1 X24.538 Y33.359 E17.20748
G1 X21.677 Y30.5 E17.40927
G1 X20.882 Y27.533 E17.56251
G1 X20.815 Y27.282 E17.57547
G1 X21.074 Y27.282 E17.58327
G1 X21.075 Y27.282 E17.58332
G1 X28.644 Y27.282 E17.96094
M204 S5000
M205 X30 Y30
G0 F2625 X28.644 Y27.082
G0 X29.044 Y27.682
M204 S3000
M205 X20 Y20
;TYPE:WALL-INNER
G1 F2100 X29.044 Y25.502 E18.0697
G1 X21.598 Y25.501 E18.44118
G1 X21.597 Y25.501 E18.44123
G1 X21.338 Y25.501 E18.45415
G1 X21.405 Y25.25 E18.46197
G1 X22.036 Y22.893 E18.5837
G1 X24.745 Y20.184 E18.77484
G1 X28.445 Y19.193 E18.96594
G1 X32.142 Y20.183 E19.15688
G1 X34.853 Y22.892 E19.34809
G1 X35.843 Y26.592 E19.53917
G1 X34.853 Y30.292 E19.73026
G1 X32.143 Y33 E19.92139
G1 X28.443 Y33.991 E20.11249
G1 X24.746 Y33.001 E20.30344
G1 X22.035 Y30.292 E20.49464
G1 X21.403 Y27.933 E20.61648
G1 X21.336 Y27.682 E20.62945
G1 X21.595 Y27.682 E20.63724
G1 X21.596 Y27.682 E20.63729
G1 X29.044 Y27.682 E21.00887
M204 S5000
M205 X30 Y30
G0 F2625 X29.444 Y28.082
M204 S3000
M205 X20 Y20
G1 F2100 X29.444 Y25.102 E21.15755
G1 X22.119 Y25.101 E21.52299
G1 X22.118 Y25.101 E21.52304
G1 X21.859 Y25.101 E21.53596
G1 X21.926 Y24.85 E21.54378
G1 X22.394 Y23.101 E21.63411
G1 X24.953 Y20.542 E21.81466
G1 X28.445 Y19.607 E21.99501
G1 X31.934 Y20.541 E22.17521
G1 X34.495 Y23.1 E22.35583
G1 X35.429 Y26.592 E22.53617
G1 X34.495 Y30.084 E22.71651
G1 X31.935 Y32.642 E22.89706
G1 X28.443 Y33.577 E23.07742
G1 X24.954 Y32.643 E23.25761
G1 X22.393 Y30.084 E23.43824
G1 X21.924 Y28.333 E23.52867
G1 X21.857 Y28.082 E23.54163
G1 X22.116 Y28.082 E23.54943
G1 X22.117 Y28.082 E23.54948
G1 X29.444 Y28.082 E23.91502
M204 S5000
M205 X30 Y30
G0 F2625 X29.844 Y28.482
M204 S3000
M205 X20 Y20
G1 F2100 X29.844 Y24.702 E24.10361
G1 X22.64 Y24.701 E24.46302
G1 X22.639 Y24.701 E24.46307
G1 X22.38 Y24.701 E24.47599
G1 X22.447 Y24.45 E24.48381
G1 X22.752 Y23.309 E24.54273
G1 X25.161 Y20.9 E24.7127
G1 X28.445 Y20.021 E24.88231
G1 X31.726 Y20.899 E25.05176
G1 X34.137 Y23.308 E25.2218
G1 X35.015 Y26.592 E25.39139
G1 X34.137 Y29.876 E25.56098
G1 X31.727 Y32.284 E25.73095
G1 X28.443 Y33.163 E25.90056
G1 X25.162 Y32.285 E26.07001
G1 X22.751 Y29.876 E26.24005
G1 X22.445 Y28.733 E26.29908
G1 X22.378 Y28.482 E26.31204
G1 X22.637 Y28.482 E26.31984
G1 X22.638 Y28.482 E26.31988
G1 X29.844 Y28.482 E26.67939
M204 S5000
M205 X30 Y30
G0 F2625 X30.244 Y28.882
M204 S3000
M205 X20 Y20
G1 F2100 X30.244 Y24.302 E26.90789
G1 X23.16 Y24.301 E27.26131
G1 X23.159 Y24.301 E27.26136
G1 X22.9 Y24.301 E27.27428
G1 X22.967 Y24.05 E27.2821
G1 X23.11 Y23.517 E27.30964
G1 X25.369 Y21.258 E27.46902
G1 X28.445 Y20.435 E27.62788
G1 X31.518 Y21.257 E27.78658
G1 X33.779 Y23.516 E27.94604
G1 X34.601 Y26.592 E28.10489
G1 X33.779 Y29.668 E28.26373
G1 X31.519 Y31.926 E28.42312
G1 X28.443 Y32.749 E28.58198
G1 X25.37 Y31.927 E28.74068
G1 X23.109 Y29.668 E28.90014
G1 X22.966 Y29.133 E28.92776
G1 X22.899 Y28.882 E28.94072
G1 X23.158 Y28.882 E28.94852
G1 X23.159 Y28.882 E28.94857
G1 X30.244 Y28.882 E29.30204
M204 S5000
M205 X30 Y30
G0 F2625 X30.634 Y29.272
M204 S3000
M205 X20 Y20
;TYPE:SKIN
G1 F2100 X30.634 Y23.912 E29.56945
G1 X23.408 Y23.911 E29.92996
G1 X23.46 Y23.717 E29.93998
G1 X25.569 Y21.608 E30.08878
G1 X28.445 Y20.839 E30.23731
G1 X31.319 Y21.608 E30.38574
G1 X33.429 Y23.716 E30.53454
G1 X34.197 Y26.592 E30.68305
G1 X33.429 Y29.468 E30.83156
G1 X31.32 Y31.576 E30.98033
G1 X28.443 Y32.345 E31.1289
G1 X25.569 Y31.576 E31.27733
G1 X23.459 Y29.468 E31.42613
G1 X23.407 Y29.272 E31.43625
G1 X30.634 Y29.272 E31.7968
M204 S5000
M205 X30 Y30
G0 F2625 X25.791 Y31.448
M204 S3000
M205 X20 Y20
G1 F2100 X23.794 Y29.451 E31.9377
M204 S5000
M205 X30 Y30
G0 F2625 X24.36 Y29.451
M204 S3000
M205 X20 Y20
G1 F2100 X26.563 Y31.655 E32.09317
G1 X26.633 Y31.725
M204 S5000
M205 X30 Y30
G0 F2625 X27.336 Y31.862
M204 S3000
M205 X20 Y20
G1 F2100 X24.926 Y29.451 E32.26324
M204 S5000
M205 X30 Y30
G0 F2625 X25.491 Y29.451
M204 S3000
M205 X20 Y20
G1 F2100 X28.108 Y32.068 E32.44789
M204 S5000
M205 X30 Y30
G0 F2625 X28.696 Y32.09
M204 S3000
M205 X20 Y20
G1 F2100 X26.057 Y29.451 E32.63408
M204 S5000
M205 X30 Y30
G0 F2625 X26.623 Y29.451
M204 S3000
M205 X20 Y20
G1 F2100 X29.142 Y31.971 E32.81185
M204 S5000
M205 X30 Y30
G0 F2625 X29.588 Y31.851
M204 S3000
M205 X20 Y20
G1 F2100 X27.188 Y29.451 E32.98118
M204 S5000
M205 X30 Y30
G0 F2625 X27.754 Y29.451
M204 S3000
M205 X20 Y20
G1 F2100 X30.035 Y31.732 E33.14212
M204 S5000
M205 X30 Y30
G0 F2625 X30.481 Y31.612
M204 S3000
M205 X20 Y20
G1 F2100 X28.32 Y29.451 E33.29459
M204 S5000
M205 X30 Y30
G0 F2625 X28.886 Y29.451
M204 S3000
M205 X20 Y20
G1 F2100 X30.927 Y31.493 E33.43863
M204 S5000
M205 X30 Y30
G0 F2625 X31.32 Y31.32
M204 S3000
M205 X20 Y20
G1 F2100 X29.451 Y29.451 E33.5705
M204 S5000
M205 X30 Y30
G0 F2625 X30.017 Y29.451
M204 S3000
M205 X20 Y20
G1 F2100 X31.603 Y31.037 E33.6824
M204 S5000
M205 X30 Y30
G0 F2625 X31.886 Y30.754
M204 S3000
M205 X20 Y20
G1 F2100 X30.583 Y29.451 E33.77433
M204 S5000
M205 X30 Y30
G0 F2625 X30.812 Y29.115
M204 S3000
M205 X20 Y20
G1 F2100 X32.169 Y30.472 E33.87007
M204 S5000
M205 X30 Y30
G0 F2625 X32.451 Y30.189
M204 S3000
M205 X20 Y20
G1 F2100 X30.812 Y28.55 E33.98571
M204 S5000
M205 X30 Y30
G0 F2625 X30.812 Y27.984
M204 S3000
M205 X20 Y20
G1 F2100 X32.734 Y29.906 E34.12132
M204 S5000
M205 X30 Y30
G0 F2625 X33.017 Y29.623
M204 S3000
M205 X20 Y20
G1 F2100 X30.812 Y27.418 E34.2769
M204 S5000
M205 X30 Y30
G0 F2625 X30.812 Y26.853
M204 S3000
M205 X20 Y20
G1 F2100 X33.281 Y29.321 E34.45106
M204 S5000
M205 X30 Y30
G0 F2625 X33.4 Y28.874
M204 S3000
M205 X20 Y20
G1 F2100 X30.812 Y26.287 E34.63362
M204 S5000
M205 X30 Y30
G0 F2625 X30.812 Y25.721
M204 S3000
M205 X20 Y20
G1 F2100 X33.519 Y28.428 E34.82462
M204 S5000
M205 X30 Y30
G0 F2625 X33.639 Y27.982
M204 S3000
M205 X20 Y20
G1 F2100 X30.812 Y25.156 E35.02404
M204 S5000
M205 X30 Y30
G0 F2625 X30.812 Y24.59
M204 S3000
M205 X20 Y20
G1 F2100 X33.758 Y27.536 E35.2319
M204 S5000
M205 X30 Y30
G0 F2625 X33.877 Y27.089
M204 S3000
M205 X20 Y20
G1 F2100 X30.812 Y24.024 E35.44815
M204 S5000
M205 X30 Y30
G0 F2625 X30.519 Y23.731
M204 S3000
M205 X20 Y20
G1 F2100 X27.946 Y21.158 E35.62969
M204 S5000
M205 X30 Y30
G0 F2625 X27.5 Y21.277
M204 S3000
M205 X20 Y20
G1 F2100 X29.953 Y23.731 E35.8028
M204 S5000
M205 X30 Y30
G0 F2625 X29.388 Y23.731
M204 S3000
M205 X20 Y20
G1 F2100 X27.053 Y21.397 E35.96751
M204 S5000
M205 X30 Y30
G0 F2625 X26.607 Y21.516
M204 S3000
M205 X20 Y20
G1 F2100 X28.822 Y23.731 E36.12379
M204 S5000
M205 X30 Y30
G0 F2625 X28.256 Y23.731
M204 S3000
M205 X20 Y20
G1 F2100 X26.161 Y21.636 E36.2716
M204 S5000
M205 X30 Y30
G0 F2625 X25.714 Y21.754
M204 S3000
M205 X20 Y20
G1 F2100 X27.691 Y23.731 E36.41109
M204 S5000
M205 X30 Y30
G0 F2625 X27.125 Y23.731
M204 S3000
M205 X20 Y20
G1 F2100 X25.412 Y22.017 E36.53199
M204 S5000
M205 X30 Y30
G0 F2625 X25.129 Y22.3
M204 S3000
M205 X20 Y20
G1 F2100 X26.559 Y23.731 E36.63292
M204 S5000
M205 X30 Y30
G0 F2625 X25.993 Y23.731
M204 S3000
M205 X20 Y20
G1 F2100 X24.846 Y22.583 E36.71388
M204 S5000
M205 X30 Y30
G0 F2625 X24.563 Y22.866
M204 S3000
M205 X20 Y20
G1 F2100 X25.428 Y23.731 E36.77491
M204 S5000
M205 X30 Y30
G0 F2625 X24.862 Y23.731
M204 S3000
M205 X20 Y20
G1 F2100 X24.28 Y23.149 E36.81597
M204 S5000
M205 X30 Y30
G0 F2625 X23.997 Y23.432
M204 S3000
M205 X20 Y20
G1 F2100 X24.296 Y23.731 E36.83707
M204 S5000
M205 X30 Y30
G0 F2625 X28.393 Y21.039
M204 S3000
M205 X20 Y20
G1 F2100 X33.996 Y26.643 E37.23243
M204 S5000
M205 X30 Y30
G0 F2625 X33.827 Y25.908
M204 S3000
M205 X20 Y20
G1 F2100 X29.127 Y21.208 E37.56404
M204 S5000
M205 X30 Y30
G0 F2625 X29.9 Y21.414
M204 S3000
M205 X20 Y20
G1 F2100 X33.621 Y25.136 E37.82661
G1 X33.691 Y25.206
M204 S5000
M205 X30 Y30
G0 F2625 X33.414 Y24.363
M204 S3000
M205 X20 Y20
G1 F2100 X30.672 Y21.621 E38.02007
G1 X30.602 Y21.551
M204 S5000
M205 X30 Y30
G1 F1500 E31.52007
;MESH:NONMESH
G0 F600 X30.602 Y21.551 Z0.45
G0 F2625 X30.244 Y28.752
;TIME_ELAPSED:26.805048
;LAYER:1
M106 S255
M204 S3000
M205 X20 Y20
;TYPE:WALL-INNER
;MESH:knob.stl
G1 F1500 E38.02007
G1 F2100 X30.244 Y24.432 E38.12783
G1 X23.095 Y24.431 E38.30617
G1 X23.094 Y24.431 E38.30619
G1 X22.835 Y24.431 E38.31265
G1 X22.902 Y24.18 E38.31656
G1 X23.084 Y23.502 E38.33407
G1 X25.354 Y21.232 E38.41415
G1 X28.445 Y20.405 E38.49397
G1 X31.533 Y21.231 E38.57371
G1 X33.805 Y23.501 E38.65383
G1 X34.631 Y26.592 E38.73364
G1 X33.805 Y29.683 E38.81345
G1 X31.534 Y31.952 E38.89353
G1 X28.443 Y32.779 E38.97335
G1 X25.355 Y31.953 E39.05308
G1 X23.083 Y29.683 E39.1332
G1 X22.901 Y29.003 E39.15076
G1 X22.834 Y28.752 E39.15724
G1 X23.093 Y28.752 E39.16114
G1 X23.094 Y28.752 E39.16116
G1 X30.244 Y28.752 E39.33952
M204 S5000
M205 X30 Y30
G0 F2812.5 X29.844 Y28.352
M204 S3000
M205 X20 Y20
G1 F2100 X29.844 Y24.832 E39.42733
G1 X22.575 Y24.831 E39.60865
G1 X22.574 Y24.831 E39.60868
G1 X22.315 Y24.831 E39.61514
G1 X22.382 Y24.58 E39.61905
G1 X22.726 Y23.294 E39.65226
G1 X25.146 Y20.874 E39.73763
G1 X28.445 Y19.991 E39.82282
G1 X31.741 Y20.873 E39.90793
G1 X34.163 Y23.293 E39.99334
G1 X35.045 Y26.592 E40.07852
G1 X34.163 Y29.891 E40.16371
G1 X31.742 Y32.31 E40.24908
G1 X28.443 Y33.193 E40.33427
G1 X25.147 Y32.311 E40.41938
G1 X22.725 Y29.891 E40.50479
G1 X22.38 Y28.603 E40.53805
G1 X22.313 Y28.352 E40.54453
G1 X22.572 Y28.352 E40.54843
