;FLAVOR:Marlin
;TIME:10899
;Filament used: 6.49334m
;Layer height: 0.15
;MINX:14.03
;MINY:13.932
;MINZ:0.3
;MAXX:97.63
;MAXY:97.492
;MAXZ:6
;Generated with Cura_SteamEngine 4.8.0
M140 S60
M105
M190 S60
M104 S205
M105
M109 S205
M82 ;absolute extrusion mode
G21 ;metric values
 G90 ;absolute positioning
 M82 ;set extruder to absolute mode
 M107 ;start with the fan off
 G28 X0 Y0 ;move X/Y to min endstops
 G28 Z0 ;move Z to min endstops
 G1 Z15.0 F50 ;move the platform down 15mm
 G92 E0 ;zero the extruded length
 G1 F200 E6 ;extrude 6 mm of feed stock
 G92 E0 ;zero the extruded length again
 G1 F50 
 ;Put printing message on LCD screen
 M117 Printing...
G92 E0
G92 E0
G1 F1500 E-6.5
;LAYER_COUNT:39
;LAYER:0
M107
M204 S5000
M205 X30 Y30
G0 F2625 X17.31 Y17.553 Z0.3
M204 S3000
M205 X20 Y20
;TYPE:SKIRT
G1 F1500 E0
G1 F2100 X18.23 Y16.691 E0.0629
G1 X18.404 Y16.548 E0.07413
G1 X19.425 Y15.807 E0.13707
G1 X19.615 Y15.687 E0.14829
G1 X20.708 Y15.086 E0.21052
G1 X20.914 Y14.989 E0.22187
G1 X22.085 Y14.527 E0.28468
G1 X22.298 Y14.458 E0.29585
G1 X23.519 Y14.144 E0.35875
G1 X23.744 Y14.101 E0.37018
G1 X24.983 Y13.946 E0.43247
G1 X25.206 Y13.932 E0.44362
G1 X86.454 Y13.932 E3.49929
G1 X86.677 Y13.946 E3.51044
G1 X87.916 Y14.101 E3.57274
G1 X88.143 Y14.144 E3.58426
G1 X89.376 Y14.462 E3.64779
G1 X89.589 Y14.532 E3.65898
G1 X90.76 Y14.996 E3.72182
G1 X90.967 Y15.093 E3.73322
G1 X92.058 Y15.695 E3.79539
G1 X92.247 Y15.815 E3.80656
G1 X93.267 Y16.557 E3.86949
G1 X93.44 Y16.701 E3.88072
G1 X94.36 Y17.565 E3.94368
G1 X94.514 Y17.729 E3.95491
G1 X95.299 Y18.677 E4.01631
G1 X95.432 Y18.86 E4.0276
G1 X96.116 Y19.937 E4.09125
G1 X96.226 Y20.137 E4.10264
G1 X96.759 Y21.272 E4.1652
G1 X96.843 Y21.483 E4.17653
G1 X97.23 Y22.679 E4.23924
G1 X97.285 Y22.896 E4.25041
G1 X97.518 Y24.119 E4.31252
G1 X97.546 Y24.342 E4.32374
G1 X97.626 Y25.601 E4.38668
G1 X97.63 Y25.715 E4.39237
G1 X97.63 Y85.708 E7.38543
G1 X97.626 Y85.823 E7.39117
G1 X97.545 Y87.093 E7.45466
G1 X97.517 Y87.317 E7.46592
G1 X97.282 Y88.542 E7.52815
G1 X97.226 Y88.759 E7.53933
G1 X96.839 Y89.951 E7.60186
G1 X96.756 Y90.161 E7.61312
G1 X96.22 Y91.3 E7.67593
G1 X96.109 Y91.501 E7.68738
G1 X95.431 Y92.566 E7.75037
G1 X95.299 Y92.747 E7.76154
G1 X94.505 Y93.706 E7.82366
G1 X94.349 Y93.872 E7.83502
G1 X93.429 Y94.733 E7.89789
G1 X93.256 Y94.876 E7.90909
G1 X92.235 Y95.617 E7.97202
G1 X92.046 Y95.737 E7.98319
G1 X90.954 Y96.338 E8.04538
G1 X90.747 Y96.435 E8.05679
G1 X89.575 Y96.898 E8.11965
G1 X89.361 Y96.968 E8.13089
G1 X88.141 Y97.281 E8.19372
G1 X87.917 Y97.323 E8.20509
G1 X86.677 Y97.478 E8.26744
G1 X86.454 Y97.492 E8.27859
G1 X25.194 Y97.491 E11.33486
G1 X24.968 Y97.477 E11.34616
G1 X23.728 Y97.32 E11.40852
G1 X23.505 Y97.277 E11.41985
G1 X22.285 Y96.963 E11.4827
G1 X22.072 Y96.894 E11.49387
G1 X20.912 Y96.435 E11.5561
G1 X20.704 Y96.337 E11.56758
G1 X19.602 Y95.729 E11.63037
G1 X19.413 Y95.609 E11.64154
G1 X18.393 Y94.867 E11.70446
G1 X18.221 Y94.724 E11.71562
G1 X17.301 Y93.861 E11.77856
G1 X17.144 Y93.694 E11.78999
G1 X16.352 Y92.735 E11.85204
G1 X16.221 Y92.554 E11.86319
G1 X15.544 Y91.488 E11.92619
G1 X15.433 Y91.288 E11.9376
G1 X14.899 Y90.15 E12.00032
G1 X14.816 Y89.939 E12.01163
G1 X14.43 Y88.745 E12.07424
G1 X14.375 Y88.527 E12.08545
G1 X14.142 Y87.302 E12.14766
G1 X14.114 Y87.08 E12.15883
G1 X14.034 Y85.823 E12.22167
G1 X14.03 Y85.709 E12.22736
G1 X14.03 Y25.716 E15.22042
G1 X14.034 Y25.602 E15.22611
G1 X14.115 Y24.33 E15.2897
G1 X14.143 Y24.104 E15.30106
G1 X14.378 Y22.881 E15.36319
G1 X14.434 Y22.665 E15.37433
G1 X14.821 Y21.473 E15.43685
G1 X14.905 Y21.262 E15.44818
G1 X15.441 Y20.124 E15.51094
G1 X15.55 Y19.925 E15.52226
G1 X16.228 Y18.859 E15.58529
G1 X16.361 Y18.676 E15.59657
G1 X17.155 Y17.718 E15.65865
G1 X17.31 Y17.553 E15.66994
M204 S5000
M205 X30 Y30
G0 F2625 X17.584 Y17.845
M204 S3000
M205 X20 Y20
G1 F2100 X18.504 Y16.983 E15.73284
G1 X18.639 Y16.872 E15.74156
G1 X19.66 Y16.131 E15.8045
G1 X19.807 Y16.037 E15.81321
G1 X20.9 Y15.436 E15.87544
G1 X21.061 Y15.361 E15.8843
G1 X22.232 Y14.899 E15.9471
G1 X22.397 Y14.845 E15.95576
G1 X23.618 Y14.531 E16.01866
G1 X23.793 Y14.498 E16.02755
G1 X25.032 Y14.343 E16.08984
G1 X25.206 Y14.332 E16.09854
G1 X86.454 Y14.332 E19.15421
G1 X86.628 Y14.343 E19.16291
G1 X87.867 Y14.498 E19.22521
G1 X88.043 Y14.531 E19.23414
G1 X89.276 Y14.849 E19.29767
G1 X89.442 Y14.903 E19.30638
G1 X90.613 Y15.367 E19.36922
G1 X90.773 Y15.443 E19.37806
G1 X91.864 Y16.045 E19.44022
G1 X92.012 Y16.139 E19.44897
G1 X93.032 Y16.881 E19.5119
G1 X93.166 Y16.992 E19.52058
G1 X94.086 Y17.856 E19.58355
G1 X94.206 Y17.984 E19.5923
G1 X94.991 Y18.932 E19.65371
G1 X95.095 Y19.074 E19.66249
G1 X95.779 Y20.151 E19.72614
G1 X95.864 Y20.307 E19.735
G1 X96.397 Y21.442 E19.79756
G1 X96.462 Y21.606 E19.80636
G1 X96.849 Y22.802 E19.86908
G1 X96.892 Y22.971 E19.87778
G1 X97.125 Y24.194 E19.93989
G1 X97.147 Y24.367 E19.94859
G1 X97.227 Y25.626 E20.01153
G1 X97.23 Y25.715 E20.01597
G1 X97.23 Y85.708 E23.00903
G1 X97.227 Y85.797 E23.01348
G1 X97.146 Y87.067 E23.07697
G1 X97.124 Y87.242 E23.08577
G1 X96.889 Y88.467 E23.148
G1 X96.846 Y88.635 E23.15665
G1 X96.459 Y89.827 E23.21917
G1 X96.394 Y89.991 E23.22797
G1 X95.858 Y91.13 E23.29078
G1 X95.772 Y91.286 E23.29966
G1 X95.094 Y92.351 E23.36265
G1 X94.991 Y92.492 E23.37136
G1 X94.197 Y93.451 E23.43348
G1 X94.076 Y93.58 E23.4423
G1 X93.156 Y94.441 E23.50516
G1 X93.021 Y94.552 E23.51388
G1 X92 Y95.293 E23.57682
G1 X91.853 Y95.387 E23.58553
G1 X90.761 Y95.988 E23.64771
G1 X90.6 Y96.063 E23.65658
G1 X89.428 Y96.526 E23.71944
G1 X89.262 Y96.58 E23.72815
G1 X88.042 Y96.893 E23.79099
G1 X87.868 Y96.926 E23.79983
G1 X86.628 Y97.081 E23.86217
G1 X86.454 Y97.092 E23.87087
G1 X25.194 Y97.091 E26.92714
G1 X25.018 Y97.08 E26.93594
G1 X23.778 Y96.923 E26.9983
G1 X23.605 Y96.89 E27.00709
G1 X22.385 Y96.576 E27.06994
G1 X22.219 Y96.522 E27.07864
G1 X21.059 Y96.063 E27.14088
G1 X20.898 Y95.987 E27.14976
G1 X19.796 Y95.379 E27.21256
G1 X19.648 Y95.285 E27.2213
G1 X18.628 Y94.543 E27.28423
G1 X18.494 Y94.432 E27.29291
G1 X17.574 Y93.569 E27.35585
G1 X17.453 Y93.439 E27.36471
G1 X16.661 Y92.48 E27.42676
G1 X16.558 Y92.34 E27.43543
G1 X15.881 Y91.274 E27.49843
G1 X15.796 Y91.118 E27.50729
G1 X15.262 Y89.98 E27.57001
G1 X15.197 Y89.816 E27.57881
G1 X14.811 Y88.622 E27.64141
G1 X14.768 Y88.453 E27.65011
G1 X14.535 Y87.228 E27.71233
G1 X14.513 Y87.055 E27.72103
G1 X14.433 Y85.798 E27.78386
G1 X14.43 Y85.709 E27.78831
G1 X14.43 Y25.716 E30.78137
G1 X14.433 Y25.627 E30.78581
G1 X14.514 Y24.355 E30.8494
G1 X14.536 Y24.18 E30.8582
G1 X14.771 Y22.957 E30.92033
G1 X14.814 Y22.789 E30.92899
G1 X15.201 Y21.597 E30.99151
G1 X15.266 Y21.432 E31.00036
G1 X15.802 Y20.294 E31.06311
G1 X15.888 Y20.14 E31.07191
G1 X16.566 Y19.074 E31.13494
G1 X16.669 Y18.932 E31.1437
G1 X17.463 Y17.974 E31.20577
G1 X17.584 Y17.845 E31.2146
M204 S5000
M205 X30 Y30
G0 F2625 X17.857 Y18.137
M204 S3000
M205 X20 Y20
G1 F2100 X18.777 Y17.275 E31.27749
G1 X18.874 Y17.196 E31.28374
G1 X19.895 Y16.455 E31.34667
G1 X20 Y16.388 E31.35289
G1 X21.093 Y15.787 E31.41512
G1 X21.208 Y15.733 E31.42146
G1 X22.379 Y15.271 E31.48426
G1 X22.497 Y15.233 E31.49045
G1 X23.718 Y14.919 E31.55334
G1 X23.843 Y14.895 E31.55969
G1 X25.082 Y14.74 E31.62199
G1 X25.206 Y14.732 E31.62819
G1 X86.454 Y14.732 E34.68386
G1 X86.578 Y14.74 E34.69006
G1 X87.817 Y14.895 E34.75236
G1 X87.943 Y14.919 E34.75876
G1 X89.176 Y15.237 E34.82229
G1 X89.294 Y15.275 E34.82847
G1 X90.465 Y15.739 E34.89131
G1 X90.58 Y15.793 E34.89765
G1 X91.671 Y16.395 E34.95982
G1 X91.776 Y16.462 E34.96603
G1 X92.796 Y17.204 E35.02896
G1 X92.893 Y17.284 E35.03523
G1 X93.813 Y18.148 E35.0982
G1 X93.898 Y18.239 E35.10441
G1 X94.683 Y19.187 E35.16582
G1 X94.757 Y19.289 E35.1721
G1 X95.441 Y20.366 E35.23576
G1 X95.502 Y20.477 E35.24207
G1 X96.035 Y21.612 E35.30463
G1 X96.081 Y21.729 E35.3109
G1 X96.468 Y22.925 E35.37362
G1 X96.499 Y23.046 E35.37985
G1 X96.732 Y24.269 E35.44196
G1 X96.748 Y24.393 E35.4482
G1 X96.828 Y25.652 E35.51114
G1 X96.83 Y25.715 E35.51429
G1 X96.83 Y85.708 E38.50735
G1 X96.828 Y85.772 E38.51054
G1 X96.747 Y87.042 E38.57403
G1 X96.731 Y87.166 E38.58027
G1 X96.496 Y88.391 E38.6425
G1 X96.465 Y88.512 E38.64873
G1 X96.078 Y89.704 E38.71126
G1 X96.032 Y89.821 E38.71753
G1 X95.496 Y90.96 E38.78033
G1 X95.435 Y91.071 E38.78665
G1 X94.757 Y92.136 E38.84964
G1 X94.683 Y92.237 E38.85588
G1 X93.889 Y93.196 E38.918
G1 X93.802 Y93.288 E38.92432
G1 X92.882 Y94.149 E38.98718
G1 X92.786 Y94.228 E38.99338
G1 X91.765 Y94.969 E39.05632
G1 X91.66 Y95.036 E39.06254
G1 X90.568 Y95.637 E39.12472
G1 X90.453 Y95.691 E39.13106
G1 X89.281 Y96.154 E39.19393
G1 X89.163 Y96.193 E39.20013
G1 X87.943 Y96.506 E39.26297
G1 X87.818 Y96.529 E39.26931
G1 X86.578 Y96.684 E39.33165
G1 X86.454 Y96.692 E39.33785
G1 X25.194 Y96.691 E42.39413
G1 X25.068 Y96.683 E42.40042
G1 X23.828 Y96.526 E42.46278
G1 X23.705 Y96.502 E42.46903
G1 X22.485 Y96.188 E42.53188
G1 X22.366 Y96.15 E42.53812
G1 X21.206 Y95.691 E42.60035
G1 X21.091 Y95.637 E42.60669
G1 X19.989 Y95.029 E42.66948
G1 X19.884 Y94.962 E42.6757
G1 X18.864 Y94.22 E42.73863
G1 X18.768 Y94.14 E42.74486
G1 X17.848 Y93.277 E42.80779
G1 X17.761 Y93.185 E42.81411
G1 X16.969 Y92.226 E42.87616
G1 X16.896 Y92.125 E42.88238
G1 X16.219 Y91.059 E42.94538
G1 X16.158 Y90.948 E42.9517
G1 X15.624 Y89.81 E43.01442
G1 X15.577 Y89.693 E43.02071
G1 X15.191 Y88.499 E43.08331
G1 X15.161 Y88.378 E43.08953
G1 X14.928 Y87.153 E43.15174
G1 X14.912 Y87.03 E43.15793
G1 X14.832 Y85.773 E43.22077
G1 X14.83 Y85.709 E43.22396
G1 X14.83 Y25.716 E46.21703
G1 X14.832 Y25.652 E46.22022
G1 X14.913 Y24.38 E46.28381
G1 X14.929 Y24.255 E46.2901
G1 X15.164 Y23.032 E46.35223
G1 X15.195 Y22.912 E46.35841
G1 X15.582 Y21.72 E46.42094
G1 X15.628 Y21.603 E46.42721
G1 X16.164 Y20.465 E46.48997
G1 X16.225 Y20.354 E46.49628
G1 X16.903 Y19.288 E46.55931
G1 X16.977 Y19.187 E46.56556
G1 X17.771 Y18.229 E46.62764
G1 X17.857 Y18.137 E46.63392
M204 S5000
M205 X30 Y30
G0 F2625 X18.131 Y18.429
M204 S3000
M205 X20 Y20
G1 F2100 X19.051 Y17.567 E46.69682
G1 X19.109 Y17.519 E46.70057
G1 X20.13 Y16.778 E46.76351
G1 X20.193 Y16.738 E46.76724
G1 X21.286 Y16.137 E46.82947
G1 X21.355 Y16.105 E46.83326
G1 X22.526 Y15.643 E46.89606
G1 X22.597 Y15.62 E46.89979
G1 X23.818 Y15.306 E46.96269
G1 X23.893 Y15.292 E46.96649
G1 X25.132 Y15.137 E47.02879
G1 X25.206 Y15.132 E47.03249
G1 X86.454 Y15.132 E50.08816
G1 X86.528 Y15.137 E50.09186
G1 X87.767 Y15.292 E50.15416
G1 X87.843 Y15.306 E50.15802
G1 X89.076 Y15.624 E50.22154
G1 X89.147 Y15.647 E50.22527
G1 X90.318 Y16.111 E50.28811
G1 X90.387 Y16.144 E50.29192
G1 X91.478 Y16.746 E50.35409
G1 X91.541 Y16.786 E50.35781
G1 X92.561 Y17.528 E50.42074
G1 X92.619 Y17.576 E50.4245
G1 X93.539 Y18.44 E50.48746
G1 X93.59 Y18.494 E50.49117
G1 X94.375 Y19.442 E50.55257
G1 X94.419 Y19.503 E50.55633
G1 X95.103 Y20.58 E50.61998
G1 X95.14 Y20.647 E50.6238
G1 X95.673 Y21.782 E50.68636
G1 X95.701 Y21.852 E50.69012
G1 X96.088 Y23.048 E50.75283
G1 X96.106 Y23.121 E50.75658
G1 X96.339 Y24.344 E50.8187
G1 X96.349 Y24.418 E50.82242
G1 X96.43 Y25.715 E50.88726
G1 X96.429 Y85.746 E53.88221
G1 X96.348 Y87.016 E53.9457
G1 X96.338 Y87.091 E53.94948
G1 X96.103 Y88.316 E54.01171
G1 X96.085 Y88.388 E54.01541
G1 X95.698 Y89.58 E54.07794
G1 X95.67 Y89.65 E54.0817
G1 X95.134 Y90.789 E54.1445
G1 X95.097 Y90.856 E54.14832
G1 X94.419 Y91.921 E54.2113
G1 X94.375 Y91.982 E54.21506
G1 X93.581 Y92.941 E54.27717
G1 X93.529 Y92.996 E54.28095
G1 X92.609 Y93.857 E54.34381
G1 X92.551 Y93.905 E54.34757
G1 X91.53 Y94.646 E54.41051
G1 X91.467 Y94.686 E54.41423
G1 X90.375 Y95.287 E54.47642
G1 X90.306 Y95.319 E54.48021
G1 X89.134 Y95.782 E54.54308
G1 X89.063 Y95.805 E54.5468
G1 X87.843 Y96.118 E54.60964
G1 X87.768 Y96.132 E54.61345
G1 X86.528 Y96.287 E54.67579
G1 X86.454 Y96.292 E54.67949
G1 X25.194 Y96.291 E57.73577
G1 X25.119 Y96.286 E57.73952
G1 X23.879 Y96.129 E57.80187
G1 X23.804 Y96.115 E57.80568
G1 X22.584 Y95.801 E57.86853
G1 X22.513 Y95.778 E57.87225
G1 X21.353 Y95.319 E57.93449
G1 X21.284 Y95.286 E57.93831
G1 X20.182 Y94.678 E58.0011
G1 X20.119 Y94.638 E58.00482
G1 X19.099 Y93.896 E58.06775
G1 X19.042 Y93.849 E58.07144
G1 X18.122 Y92.986 E58.13437
G1 X18.069 Y92.93 E58.13822
G1 X17.277 Y91.971 E58.20027
G1 X17.234 Y91.911 E58.20395
G1 X16.557 Y90.845 E58.26695
G1 X16.52 Y90.778 E58.27077
G1 X15.986 Y89.64 E58.33349
G1 X15.958 Y89.57 E58.33725
G1 X15.572 Y88.376 E58.39985
G1 X15.554 Y88.303 E58.4036
G1 X15.321 Y87.078 E58.46581
G1 X15.311 Y87.004 E58.46954
G1 X15.23 Y85.709 E58.53427
G1 X15.231 Y25.678 E61.52923
G1 X15.312 Y24.406 E61.59282
G1 X15.322 Y24.331 E61.5966
G1 X15.557 Y23.108 E61.65873
G1 X15.575 Y23.036 E61.66243
G1 X15.962 Y21.844 E61.72496
G1 X15.99 Y21.773 E61.72876
G1 X16.526 Y20.635 E61.79152
G1 X16.563 Y20.569 E61.7953
G1 X17.241 Y19.503 E61.85832
G1 X17.285 Y19.442 E61.86208
G1 X18.079 Y18.484 E61.92415
G1 X18.131 Y18.429 E61.92793
M204 S5000
M205 X30 Y30
G0 F2625 X18.404 Y18.721
M204 S3000
M205 X20 Y20
G1 F2100 X19.324 Y17.859 E61.99083
G1 X20.365 Y17.102 E62.05504
G1 X21.479 Y16.488 E62.1185
G1 X21.502 Y16.477 E62.11978
G1 X22.696 Y16.007 E62.18379
G1 X23.917 Y15.693 E62.24669
G1 X25.181 Y15.534 E62.31025
G1 X25.206 Y15.532 E62.3115
G1 X86.454 Y15.532 E65.36718
G1 X87.718 Y15.689 E65.43072
G1 X87.743 Y15.693 E65.43198
G1 X88.976 Y16.011 E65.49551
G1 X90.171 Y16.483 E65.55961
G1 X90.194 Y16.494 E65.56088
G1 X91.306 Y17.109 E65.62428
G1 X92.326 Y17.851 E65.68721
G1 X93.265 Y18.731 E65.75141
G1 X93.282 Y18.749 E65.75265
G1 X94.067 Y19.697 E65.81406
G1 X94.766 Y20.795 E65.87899
G1 X94.778 Y20.817 E65.88024
G1 X95.311 Y21.952 E65.9428
G1 X95.32 Y21.975 E65.94403
G1 X95.707 Y23.171 E66.00675
G1 X95.946 Y24.419 E66.07014
G1 X95.95 Y24.443 E66.07136
G1 X96.03 Y25.702 E66.1343
G1 X96.03 Y85.721 E69.12866
G1 X95.949 Y86.991 E69.19214
G1 X95.71 Y88.241 E69.25564
G1 X95.704 Y88.265 E69.25687
G1 X95.317 Y89.457 E69.3194
G1 X95.308 Y89.48 E69.32063
G1 X94.772 Y90.619 E69.38343
G1 X94.76 Y90.641 E69.38468
G1 X94.067 Y91.727 E69.44895
G1 X93.273 Y92.686 E69.51107
G1 X93.256 Y92.704 E69.5123
G1 X92.336 Y93.565 E69.57517
G1 X91.295 Y94.322 E69.63938
G1 X90.182 Y94.936 E69.7028
G1 X90.159 Y94.947 E69.70407
G1 X88.964 Y95.418 E69.76815
G1 X87.744 Y95.731 E69.83099
G1 X86.479 Y95.89 E69.8946
G1 X86.454 Y95.892 E69.89585
G1 X25.194 Y95.891 E72.95213
G1 X23.929 Y95.732 E73.01573
G1 X23.904 Y95.728 E73.017
G1 X22.684 Y95.414 E73.07985
G1 X21.5 Y94.947 E73.14334
G1 X21.477 Y94.936 E73.14462
G1 X20.354 Y94.315 E73.20864
G1 X19.334 Y93.573 E73.27157
G1 X18.395 Y92.694 E73.33574
G1 X17.586 Y91.716 E73.39906
G1 X17.571 Y91.696 E73.40031
G1 X16.894 Y90.63 E73.46331
G1 X16.882 Y90.608 E73.46456
G1 X16.348 Y89.47 E73.52727
G1 X16.339 Y89.447 E73.52851
G1 X15.953 Y88.253 E73.59111
G1 X15.714 Y87.003 E73.6546
G1 X15.71 Y86.979 E73.65582
G1 X15.63 Y85.722 E73.71866
G1 X15.63 Y25.703 E76.71302
G1 X15.711 Y24.431 E76.7766
G1 X15.95 Y23.183 E76.84
G1 X15.956 Y23.159 E76.84123
G1 X16.343 Y21.967 E76.90376
G1 X16.352 Y21.944 E76.90499
G1 X16.888 Y20.806 E76.96775
G1 X16.9 Y20.784 E76.969
G1 X17.593 Y19.697 E77.03331
G1 X18.387 Y18.739 E77.09539
G1 X18.404 Y18.721 E77.09662
M204 S5000
M205 X30 Y30
G0 F2625 X23.932 Y23.938
M204 S3000
M205 X20 Y20
;TYPE:SUPPORT
G1 F2100 X24.163 Y23.721 E77.11244
G1 X24.425 Y23.529 E77.12864
G1 X24.694 Y23.378 E77.14403
G1 X25.025 Y23.245 E77.16183
G1 X25.328 Y23.163 E77.17749
G1 X25.642 Y23.122 E77.19329
G1 X25.968 Y23.119 E77.20955
G1 X26.3 Y23.159 E77.22624
G1 X26.614 Y23.238 E77.24239
G1 X26.922 Y23.356 E77.25884
G1 X27.208 Y23.512 E77.2751
G1 X27.474 Y23.701 E77.29138
G1 X27.712 Y23.922 E77.30758
G1 X27.925 Y24.178 E77.3242
G1 X28.108 Y24.463 E77.34109
G1 X28.246 Y24.757 E77.3573
G1 X28.348 Y25.071 E77.37377
G1 X28.405 Y25.369 E77.3889
G1 X28.426 Y25.712 E77.40605
G1 X28.405 Y26.054 E77.42314
G1 X28.35 Y26.348 E77.43807
G1 X28.243 Y26.674 E77.45518
G1 X28.112 Y26.954 E77.47061
G1 X27.924 Y27.249 E77.48806
G1 X27.734 Y27.48 E77.50298
G1 X27.498 Y27.701 E77.51911
G1 X27.236 Y27.895 E77.53538
G1 X26.961 Y28.049 E77.5511
G1 X26.633 Y28.181 E77.56874
